;FLAVOR:Marlin
;TIME:61
;Filament used: 0.0159972m
;Layer height: 0.2
;MINX:108.201
;MINY:108.201
;MINZ:0.2
;MAXX:111.798
;MAXY:111.799
;MAXZ:6.2
;Generated with Cura_SteamEngine main
M82 ;absolute extrusion mode
; Ender 3 Custom Start G-code
G92 E0 ; Reset Extruder
G28 ; Home all axes
M104 S175 ; Start heating up the nozzle most of the way
M190 S55 ; Start heating the bed, wait until target temperature reached
M109 S190.0 ; Finish heating the nozzle
G1 Z2.0 F3000 ; Move Z Axis up little to prevent scratching of Heat Bed
G1 X0.1 Y20 Z0.3 F5000.0 ; Move to start position
G1 X0.1 Y200.0 Z0.3 F1500.0 E15 ; Draw the first line
G1 X0.4 Y200.0 Z0.3 F5000.0 ; Move to side a little
G1 X0.4 Y20 Z0.3 F1500.0 E30 ; Draw the second line
G92 E0 ; Reset Extruder
G1 Z2.0 F3000 ; Move Z Axis up little to prevent scratching of Heat Bed
G1 X5 Y20 Z0.3 F5000.0 ; Move over to prevent blob squish
G92 E0
G92 E0
G1 F1500 E-6.5
;LAYER_COUNT:31
;LAYER:0
M107
G1 F300 Z0.4
;MESH:button-cap.stl
G0 F6000 X110.513 Y111.299 Z0.4
;TYPE:WALL-INNER
G1 F300 Z0.2
G1 F1500 E0
G1 F600 X110.76 Y111.17 E0.00927
G1 X110.985 Y110.984 E0.01898
G1 X111.165 Y110.761 E0.02851
G1 X111.3 Y110.51 E0.03799
G1 X111.374 Y110.251 E0.04695
G1 X111.408 Y109.862 E0.05994
G1 X111.294 Y109.486 E0.073
G1 X111.165 Y109.239 E0.08227
G1 X110.982 Y109.013 E0.09194
G1 X110.761 Y108.831 E0.10147
G1 X110.514 Y108.702 E0.11073
G1 X110.25 Y108.626 E0.11987
G1 X110 Y108.603 E0.12822
G1 X109.75 Y108.626 E0.13657
G1 X109.486 Y108.702 E0.14571
G1 X109.239 Y108.831 E0.15498
G1 X109.011 Y109.016 E0.16474
G1 X108.831 Y109.239 E0.17427
G1 X108.7 Y109.49 E0.18369
G1 X108.626 Y109.749 E0.19265
G1 X108.603 Y110.001 E0.20107
G1 X108.626 Y110.251 E0.20942
G1 X108.7 Y110.51 E0.21838
G1 X108.831 Y110.761 E0.22779
G1 X109.011 Y110.984 E0.23732
G1 X109.24 Y111.17 E0.24714
G1 X109.487 Y111.299 E0.25641
G1 X109.75 Y111.374 E0.2655
G1 X110 Y111.397 E0.27385
G1 X110.25 Y111.374 E0.2822
G1 X110.513 Y111.299 E0.2913
G0 F6000 X110 Y111.799
;TYPE:WALL-OUTER
G1 F600 X110.324 Y111.769 E0.30212
G1 X110.663 Y111.672 E0.31385
G1 X110.981 Y111.506 E0.32578
G1 X111.272 Y111.269 E0.33826
G1 X111.504 Y110.981 E0.35056
G1 X111.674 Y110.659 E0.36267
G1 X111.769 Y110.325 E0.37422
G1 X111.798 Y109.999 E0.38511
G1 X111.769 Y109.676 E0.39589
G1 X111.67 Y109.337 E0.40764
G1 X111.504 Y109.019 E0.41957
G1 X111.268 Y108.727 E0.43206
G1 X110.981 Y108.495 E0.44433
G1 X110.663 Y108.328 E0.45628
G1 X110.324 Y108.231 E0.46801
G1 X110 Y108.201 E0.47883
G1 X109.676 Y108.231 E0.48965
G1 X109.337 Y108.328 E0.50138
G1 X109.019 Y108.495 E0.51333
G1 X108.727 Y108.731 E0.52581
G1 X108.495 Y109.019 E0.53811
G1 X108.326 Y109.341 E0.55021
G1 X108.231 Y109.675 E0.56176
G1 X108.201 Y110.001 E0.57265
G1 X108.231 Y110.325 E0.58347
G1 X108.326 Y110.659 E0.59502
G1 X108.495 Y110.981 E0.60711
G1 X108.727 Y111.269 E0.61941
G1 X109.019 Y111.506 E0.63192
G1 X109.337 Y111.672 E0.64385
G1 X109.676 Y111.769 E0.65558
G1 X110 Y111.799 E0.6664
G0 F6000 X109.612 Y110.956
;TYPE:SKIN
G1 F600 X110 Y111.032 E0.67955
G1 X110.389 Y110.957 E0.69273
G1 X110.727 Y110.727 E0.70633
G1 X110.964 Y110.372 E0.72053
G1 X111.015 Y110.192 E0.72675
G1 X111.015 Y109.813 E0.73935
G1 X110.921 Y109.515 E0.74975
G1 X110.641 Y109.168 E0.76458
G1 X110.179 Y108.986 E0.78109
G1 X109.821 Y108.986 E0.793
G1 X109.431 Y109.14 E0.80694
G1 X109.266 Y109.273 E0.81399
G1 X109.036 Y109.627 E0.82803
G1 X108.984 Y109.81 E0.83436
G1 X108.984 Y110.191 E0.84703
G1 X109.133 Y110.56 E0.86027
G1 X109.266 Y110.725 E0.86732
G1 X109.612 Y110.956 E0.88116
G0 F6000 X109.537 Y110.668
G1 F600 X109.289 Y110.42 E0.89282
G0 F6000 X109.209 Y109.774
G1 F600 X110.218 Y110.784 E0.94031
G0 F6000 X110.584 Y110.584
G1 F600 X109.424 Y109.424 E0.99487
G0 F6000 X109.782 Y109.216
G1 F600 X110.795 Y110.23 E1.04254
G0 F6000 X110.735 Y109.604
M104 S190
G1 F600 X110.432 Y109.301 E1.05679
G1 F1500 E-5.44321
G1 F300 Z0.4
;MESH:NONMESH
G0 F6000 X110.513 Y111.299 Z0.4
;TIME_ELAPSED:8.356628
;LAYER:1
M106 S85
;TYPE:WALL-INNER
;MESH:button-cap.stl
G1 F300 Z0.4
G1 F1500 E1.05679
G1 F600 X110.76 Y111.17 E1.06606
G1 X110.985 Y110.984 E1.07577
G1 X111.165 Y110.761 E1.0853
G1 X111.3 Y110.51 E1.09478
G1 X111.374 Y110.251 E1.10374
G1 X111.408 Y109.862 E1.11673
G1 X111.294 Y109.486 E1.1298
G1 X111.165 Y109.239 E1.13906
G1 X110.982 Y109.013 E1.14874
G1 X110.761 Y108.831 E1.15826
G1 X110.514 Y108.702 E1.16753
G1 X110.25 Y108.626 E1.17666
G1 X110 Y108.603 E1.18501
G1 X109.75 Y108.626 E1.19336
G1 X109.486 Y108.702 E1.2025
G1 X109.239 Y108.831 E1.21177
G1 X109.011 Y109.016 E1.22153
G1 X108.831 Y109.239 E1.23107
G1 X108.7 Y109.49 E1.24048
G1 X108.626 Y109.749 E1.24944
G1 X108.603 Y110.001 E1.25786
G1 X108.626 Y110.251 E1.26621
G1 X108.7 Y110.51 E1.27517
G1 X108.831 Y110.761 E1.28458
G1 X109.011 Y110.984 E1.29412
G1 X109.24 Y111.17 E1.30393
G1 X109.487 Y111.299 E1.3132
G1 X109.75 Y111.374 E1.32229
G1 X110 Y111.397 E1.33064
G1 X110.25 Y111.374 E1.33899
G1 X110.513 Y111.299 E1.34809
G0 F7500 X110 Y111.799
;TYPE:WALL-OUTER
G1 F600 X110.324 Y111.769 E1.35891
G1 X110.663 Y111.672 E1.37064
G1 X110.981 Y111.506 E1.38257
G1 X111.272 Y111.269 E1.39505
G1 X111.504 Y110.981 E1.40735
G1 X111.674 Y110.659 E1.41946
G1 X111.769 Y110.325 E1.43101
G1 X111.798 Y109.999 E1.4419
G1 X111.769 Y109.676 E1.45269
G1 X111.67 Y109.337 E1.46443
G1 X111.504 Y109.019 E1.47636
G1 X111.268 Y108.727 E1.48885
G1 X110.981 Y108.495 E1.50112
G1 X110.663 Y108.328 E1.51307
G1 X110.324 Y108.231 E1.5248
G1 X110 Y108.201 E1.53562
G1 X109.676 Y108.231 E1.54644
G1 X109.337 Y108.328 E1.55817
G1 X109.019 Y108.495 E1.57012
G1 X108.727 Y108.731 E1.58261
G1 X108.495 Y109.019 E1.59491
G1 X108.326 Y109.341 E1.607
G1 X108.231 Y109.675 E1.61855
G1 X108.201 Y110.001 E1.62944
G1 X108.231 Y110.325 E1.64026
G1 X108.326 Y110.659 E1.65181
G1 X108.495 Y110.981 E1.66391
G1 X108.727 Y111.269 E1.67621
G1 X109.019 Y111.506 E1.68871
G1 X109.337 Y111.672 E1.70065
G1 X109.676 Y111.769 E1.71237
G1 X110 Y111.799 E1.7232
G0 F7500 X109.612 Y110.956
;TYPE:SKIN
G1 F600 X110 Y111.032 E1.73635
G1 X110.389 Y110.957 E1.74952
G1 X110.727 Y110.727 E1.76312
G1 X110.964 Y110.372 E1.77732
G1 X111.015 Y110.192 E1.78354
G1 X111.015 Y109.813 E1.79615
G1 X110.921 Y109.515 E1.80654
G1 X110.641 Y109.168 E1.82137
G1 X110.179 Y108.986 E1.83788
G1 X109.821 Y108.986 E1.84979
G1 X109.431 Y109.14 E1.86374
G1 X109.266 Y109.273 E1.87079
G1 X109.036 Y109.627 E1.88483
G1 X108.984 Y109.81 E1.89115
G1 X108.984 Y110.191 E1.90383
G1 X109.133 Y110.56 E1.91706
G1 X109.266 Y110.725 E1.92411
G1 X109.612 Y110.956 E1.93795
G0 F7500 X109.824 Y110.793
G1 F600 X110.804 Y109.812 E1.98407
G0 F7500 X110.606 Y109.445
G1 F600 X109.444 Y110.607 E2.03872
G0 F7500 X109.224 Y110.261
G1 F600 X110.255 Y109.23 E2.08722
G0 F7500 X109.653 Y109.266
G1 F600 X109.254 Y109.665 E2.10599
G1 F1500 E-4.39401
G1 F300 Z0.6
;MESH:NONMESH
G0 F7500 X110.513 Y111.299 Z0.6
;TIME_ELAPSED:12.588003
;LAYER:2
M106 S170
;TYPE:WALL-INNER
;MESH:button-cap.stl
G1 F300 Z0.6
G1 F1500 E2.10599
G1 F600 X110.76 Y111.17 E2.11526
G1 X110.985 Y110.984 E2.12497
G1 X111.165 Y110.761 E2.1345
G1 X111.3 Y110.51 E2.14398
G1 X111.374 Y110.251 E2.15294
G1 X111.408 Y109.862 E2.16592
G1 X111.294 Y109.486 E2.17899
G1 X111.165 Y109.239 E2.18826
G1 X110.982 Y109.013 E2.19793
G1 X110.761 Y108.831 E2.20745
G1 X110.514 Y108.702 E2.21672
G1 X110.25 Y108.626 E2.22586
G1 X110 Y108.603 E2.23421
G1 X109.75 Y108.626 E2.24256
G1 X109.486 Y108.702 E2.2517
G1 X109.239 Y108.831 E2.26096
G1 X109.011 Y109.016 E2.27073
G1 X108.831 Y109.239 E2.28026
G1 X108.7 Y109.49 E2.28968
G1 X108.626 Y109.749 E2.29864
G1 X108.603 Y110.001 E2.30705
G1 X108.626 Y110.251 E2.3154
G1 X108.7 Y110.51 E2.32436
G1 X108.831 Y110.761 E2.33378
G1 X109.011 Y110.984 E2.34331
G1 X109.24 Y111.17 E2.35312
G1 X109.487 Y111.299 E2.36239
G1 X109.75 Y111.374 E2.37149
G1 X110 Y111.397 E2.37984
G1 X110.25 Y111.374 E2.38819
G1 X110.513 Y111.299 E2.39729
G0 F9000 X110 Y111.799
;TYPE:WALL-OUTER
G1 F600 X110.324 Y111.769 E2.40811
G1 X110.663 Y111.672 E2.41984
G1 X110.981 Y111.506 E2.43177
G1 X111.272 Y111.269 E2.44425
G1 X111.504 Y110.981 E2.45655
G1 X111.674 Y110.659 E2.46866
G1 X111.769 Y110.325 E2.48021
G1 X111.798 Y109.999 E2.4911
G1 X111.769 Y109.676 E2.50188
G1 X111.67 Y109.337 E2.51363
G1 X111.504 Y109.019 E2.52556
G1 X111.268 Y108.727 E2.53805
G1 X110.981 Y108.495 E2.55032
G1 X110.663 Y108.328 E2.56227
G1 X110.324 Y108.231 E2.57399
G1 X110 Y108.201 E2.58482
G1 X109.676 Y108.231 E2.59564
G1 X109.337 Y108.328 E2.60737
G1 X109.019 Y108.495 E2.61931
G1 X108.727 Y108.731 E2.6318
G1 X108.495 Y109.019 E2.6441
G1 X108.326 Y109.341 E2.6562
G1 X108.231 Y109.675 E2.66775
G1 X108.201 Y110.001 E2.67863
G1 X108.231 Y110.325 E2.68946
G1 X108.326 Y110.659 E2.70101
G1 X108.495 Y110.981 E2.7131
G1 X108.727 Y111.269 E2.7254
G1 X109.019 Y111.506 E2.73791
G1 X109.337 Y111.672 E2.74984
G1 X109.676 Y111.769 E2.76157
G1 X110 Y111.799 E2.77239
G0 F9000 X109.612 Y110.956
;TYPE:SKIN
G1 F600 X110 Y111.032 E2.78554
G1 X110.389 Y110.957 E2.79872
G1 X110.727 Y110.727 E2.81232
G1 X110.964 Y110.372 E2.82651
G1 X111.015 Y110.192 E2.83274
G1 X111.015 Y109.813 E2.84534
G1 X110.921 Y109.515 E2.85573
G1 X110.641 Y109.168 E2.87056
G1 X110.179 Y108.986 E2.88708
G1 X109.821 Y108.986 E2.89899
G1 X109.431 Y109.14 E2.91293
G1 X109.266 Y109.273 E2.91998
G1 X109.036 Y109.627 E2.93402
G1 X108.984 Y109.81 E2.94035
G1 X108.984 Y110.191 E2.95302
G1 X109.133 Y110.56 E2.96626
G1 X109.266 Y110.725 E2.97331
G1 X109.612 Y110.956 E2.98714
G0 F9000 X109.537 Y110.668
G1 F600 X109.289 Y110.42 E2.99881
G0 F9000 X109.209 Y109.774
G1 F600 X110.218 Y110.784 E3.04629
G0 F9000 X110.584 Y110.584
G1 F600 X109.424 Y109.424 E3.10086
G0 F9000 X109.782 Y109.216
G1 F600 X110.795 Y110.23 E3.14853
G0 F9000 X110.735 Y109.604
G1 F600 X110.432 Y109.301 E3.16278
G1 F1500 E-3.33722
G1 F300 Z0.8
;MESH:NONMESH
G0 F9000 X109.85 Y110.833 Z0.8
;TIME_ELAPSED:16.903265
;LAYER:3
M106 S255
;TYPE:WALL-INNER
;MESH:button-cap.stl
G1 F300 Z0.8
G1 F1500 E3.16278
G1 F600 X110.15 Y110.833 E3.17276
G1 X110.459 Y110.709 E3.18383
G1 X110.596 Y110.595 E3.18976
G1 X110.788 Y110.308 E3.20124
G1 X110.833 Y110.151 E3.20668
G1 X110.833 Y109.85 E3.21669
G1 X110.705 Y109.54 E3.22784
G1 X110.46 Y109.291 E3.23946
G1 X110.15 Y109.167 E3.25057
G1 X109.85 Y109.167 E3.26054
G1 X109.688 Y109.213 E3.26615
G1 X109.4 Y109.405 E3.27766
G1 X109.212 Y109.692 E3.28907
G1 X109.153 Y110.001 E3.29953
G1 X109.212 Y110.308 E3.30993
G1 X109.4 Y110.595 E3.32134
G1 X109.541 Y110.709 E3.32737
G1 X109.85 Y110.833 E3.33845
G0 F9000 X109.539 Y111.16
;TYPE:WALL-OUTER
G1 F600 X109.776 Y111.228 E3.34665
G1 X110.224 Y111.228 E3.36155
G1 X110.461 Y111.16 E3.36975
G1 X110.68 Y111.045 E3.37797
G1 X110.883 Y110.88 E3.38668
G1 X111.044 Y110.68 E3.39522
G1 X111.162 Y110.457 E3.40361
G1 X111.228 Y110.225 E3.41163
G1 X111.228 Y109.776 E3.42656
G1 X111.044 Y109.32 E3.44292
G1 X110.879 Y109.116 E3.45164
G1 X110.68 Y108.955 E3.46016
G1 X110.461 Y108.84 E3.46839
G1 X110.224 Y108.772 E3.47659
G1 X109.776 Y108.772 E3.49149
G1 X109.539 Y108.84 E3.49969
G1 X109.32 Y108.955 E3.50791
G1 X109.116 Y109.12 E3.51664
G1 X108.955 Y109.32 E3.52518
G1 X108.838 Y109.543 E3.53356
G1 X108.751 Y110.001 E3.54906
G1 X108.838 Y110.457 E3.5645
G1 X108.955 Y110.68 E3.57288
G1 X109.116 Y110.88 E3.58142
G1 X109.32 Y111.045 E3.59014
G1 X109.539 Y111.16 E3.59837
G0 F9000 X110.266 Y110.401
;TYPE:SKIN
G1 F600 X110.444 Y110.177 E3.60789
G1 X110.469 Y109.914 E3.61667
G1 X110.399 Y109.743 E3.62282
G1 X110.225 Y109.563 E3.63115
G1 X110 Y109.518 E3.63878
G1 X109.825 Y109.553 E3.64471
G1 X109.652 Y109.668 E3.65162
G1 X109.528 Y109.907 E3.66058
G1 X109.556 Y110.178 E3.66964
G1 X109.659 Y110.336 E3.67591
G1 X109.818 Y110.442 E3.68227
G1 X110.089 Y110.471 E3.69133
G1 X110.266 Y110.401 E3.69767
G0 F9000 X110.199 Y109.852
G1 F600 X109.846 Y110.204 E3.71425
;MESH:NONMESH
G0 F300 X109.846 Y110.204 Z1
G0 F9000 X109.85 Y110.833
;TIME_ELAPSED:19.198701
;LAYER:4
;TYPE:WALL-INNER
;MESH:button-cap.stl
G1 F600 X110.15 Y110.833 E3.72422
G1 X110.459 Y110.709 E3.7353
G1 X110.596 Y110.595 E3.74123
G1 X110.788 Y110.308 E3.75271
G1 X110.833 Y110.151 E3.75814
G1 X110.833 Y109.85 E3.76815
G1 X110.705 Y109.54 E3.77931
G1 X110.46 Y109.291 E3.79093
G1 X110.15 Y109.167 E3.80203
G1 X109.85 Y109.167 E3.81201
G1 X109.688 Y109.213 E3.81761
G1 X109.4 Y109.405 E3.82912
G1 X109.212 Y109.692 E3.84053
G1 X109.153 Y110.001 E3.851
G1 X109.212 Y110.308 E3.8614
G1 X109.4 Y110.595 E3.87281
G1 X109.541 Y110.709 E3.87884
G1 X109.85 Y110.833 E3.88991
G0 F9000 X109.539 Y111.16
;TYPE:WALL-OUTER
G1 F600 X109.776 Y111.228 E3.89811
G1 X110.224 Y111.228 E3.91301
G1 X110.461 Y111.16 E3.92121
G1 X110.68 Y111.045 E3.92944
G1 X110.883 Y110.88 E3.93814
G1 X111.044 Y110.68 E3.94668
G1 X111.162 Y110.457 E3.95507
G1 X111.228 Y110.225 E3.9631
G1 X111.228 Y109.776 E3.97803
G1 X111.044 Y109.32 E3.99438
G1 X110.879 Y109.116 E4.00311
G1 X110.68 Y108.955 E4.01162
G1 X110.461 Y108.84 E4.01985
G1 X110.224 Y108.772 E4.02805
G1 X109.776 Y108.772 E4.04295
G1 X109.539 Y108.84 E4.05115
G1 X109.32 Y108.955 E4.05938
G1 X109.116 Y109.12 E4.06811
G1 X108.955 Y109.32 E4.07665
G1 X108.838 Y109.543 E4.08502
G1 X108.751 Y110.001 E4.10053
G1 X108.838 Y110.457 E4.11597
G1 X108.955 Y110.68 E4.12434
G1 X109.116 Y110.88 E4.13288
G1 X109.32 Y111.045 E4.14161
G1 X109.539 Y111.16 E4.14984
G0 F9000 X109.912 Y110.754
;TYPE:FILL
G1 F1200 X110.451 Y110.609 E4.1684
G0 F9000 X110.684 Y109.684
G1 F1200 X110.301 Y109.301 E4.18642
G0 F9000 X109.388 Y109.545
G1 F1200 X109.252 Y110.052 E4.20388
;MESH:NONMESH
G0 F300 X109.252 Y110.052 Z1.2
G0 F9000 X109.85 Y110.833
;TIME_ELAPSED:21.050376
;LAYER:5
;TYPE:WALL-INNER
;MESH:button-cap.stl
G1 F600 X110.15 Y110.833 E4.21385
G1 X110.459 Y110.709 E4.22493
G1 X110.596 Y110.595 E4.23086
G1 X110.788 Y110.308 E4.24234
G1 X110.833 Y110.151 E4.24777
G1 X110.833 Y109.85 E4.25778
G1 X110.705 Y109.54 E4.26894
G1 X110.46 Y109.291 E4.28056
G1 X110.15 Y109.167 E4.29166
G1 X109.85 Y109.167 E4.30164
G1 X109.688 Y109.213 E4.30724
G1 X109.4 Y109.405 E4.31875
G1 X109.212 Y109.692 E4.33017
G1 X109.153 Y110.001 E4.34063
G1 X109.212 Y110.308 E4.35103
G1 X109.4 Y110.595 E4.36244
G1 X109.541 Y110.709 E4.36847
G1 X109.85 Y110.833 E4.37954
G0 F9000 X109.539 Y111.16
;TYPE:WALL-OUTER
G1 F600 X109.776 Y111.228 E4.38774
G1 X110.224 Y111.228 E4.40264
G1 X110.461 Y111.16 E4.41084
G1 X110.68 Y111.045 E4.41907
G1 X110.883 Y110.88 E4.42777
G1 X111.044 Y110.68 E4.43631
G1 X111.162 Y110.457 E4.4447
G1 X111.228 Y110.225 E4.45273
G1 X111.228 Y109.776 E4.46766
G1 X111.044 Y109.32 E4.48401
G1 X110.879 Y109.116 E4.49274
G1 X110.68 Y108.955 E4.50125
G1 X110.461 Y108.84 E4.50948
G1 X110.224 Y108.772 E4.51768
G1 X109.776 Y108.772 E4.53258
G1 X109.539 Y108.84 E4.54078
G1 X109.32 Y108.955 E4.54901
G1 X109.116 Y109.12 E4.55774
G1 X108.955 Y109.32 E4.56628
G1 X108.838 Y109.543 E4.57465
G1 X108.751 Y110.001 E4.59016
G1 X108.838 Y110.457 E4.6056
G1 X108.955 Y110.68 E4.61397
G1 X109.116 Y110.88 E4.62251
G1 X109.32 Y111.045 E4.63124
G1 X109.539 Y111.16 E4.63947
;MESH:NONMESH
G0 F300 X109.539 Y111.16 Z1.4
G0 F9000 X109.85 Y110.833
;TIME_ELAPSED:22.538640
;LAYER:6
;TYPE:WALL-INNER
;MESH:button-cap.stl
G1 F600 X110.15 Y110.833 E4.64945
G1 X110.459 Y110.709 E4.66052
G1 X110.596 Y110.595 E4.66645
G1 X110.788 Y110.308 E4.67793
G1 X110.833 Y110.151 E4.68337
G1 X110.833 Y109.85 E4.69338
G1 X110.705 Y109.54 E4.70453
G1 X110.46 Y109.291 E4.71615
G1 X110.15 Y109.167 E4.72725
G1 X109.85 Y109.167 E4.73723
G1 X109.688 Y109.213 E4.74283
G1 X109.4 Y109.405 E4.75435
G1 X109.212 Y109.692 E4.76576
G1 X109.153 Y110.001 E4.77622
G1 X109.212 Y110.308 E4.78662
G1 X109.4 Y110.595 E4.79803
G1 X109.541 Y110.709 E4.80406
G1 X109.85 Y110.833 E4.81513
G0 F9000 X109.539 Y111.16
;TYPE:WALL-OUTER
G1 F600 X109.776 Y111.228 E4.82334
G1 X110.224 Y111.228 E4.83824
G1 X110.461 Y111.16 E4.84644
G1 X110.68 Y111.045 E4.85466
G1 X110.883 Y110.88 E4.86336
G1 X111.044 Y110.68 E4.8719
G1 X111.162 Y110.457 E4.8803
G1 X111.228 Y110.225 E4.88832
G1 X111.228 Y109.776 E4.90325
G1 X111.044 Y109.32 E4.91961
G1 X110.879 Y109.116 E4.92833
G1 X110.68 Y108.955 E4.93685
