;FLAVOR:Marlin
;TIME:2427
;Filament used: 1.53851m
;Layer height: 0.2
;MINX:157.025
;MINY:97.07
;MINZ:0.2
;MAXX:210.825
;MAXY:122.93
;MAXZ:7.6
;Generated with Cura_SteamEngine main
M82 ;absolute extrusion mode
; Ender 3 Custom Start G-code
G92 E0 ; Reset Extruder
G28 ; Home all axes
M104 S175 ; Start heating up the nozzle most of the way
M190 S55 ; Start heating the bed, wait until target temperature reached
M109 S195 ; Finish heating the nozzle
G1 Z2.0 F3000 ; Move Z Axis up little to prevent scratching of Heat Bed
G1 X0.1 Y20 Z0.3 F5000.0 ; Move to start position
G1 X0.1 Y200.0 Z0.3 F1500.0 E15 ; Draw the first line
G1 X0.4 Y200.0 Z0.3 F5000.0 ; Move to side a little
G1 X0.4 Y20 Z0.3 F1500.0 E30 ; Draw the second line
G92 E0 ; Reset Extruder
G1 Z2.0 F3000 ; Move Z Axis up little to prevent scratching of Heat Bed
G1 X5 Y20 Z0.3 F5000.0 ; Move over to prevent blob squish
G92 E0
G92 E0
G1 F1500 E-6.5
;LAYER_COUNT:37
;LAYER:0
M107
G1 F300 Z0.4
G0 F6000 X206.438 Y100.475 Z0.4
;TYPE:SKIRT
G1 F300 Z0.2
G1 F1500 E0
G1 F1200 X206.612 Y100.175 E0.01153
G1 X206.958 Y100.175 E0.02304
G1 X207.131 Y100.475 E0.03456
G1 X206.958 Y100.775 E0.04608
G1 X206.612 Y100.775 E0.05759
G1 X206.438 Y100.475 E0.06912
G0 F6000 X205.977 Y100.475
G1 F1200 X206.381 Y99.775 E0.096
G1 X207.188 Y99.775 E0.12284
G1 X207.593 Y100.475 E0.14974
G1 X207.188 Y101.175 E0.17664
G1 X206.381 Y101.175 E0.20348
G1 X205.977 Y100.475 E0.23036
G0 F6000 X205.515 Y100.475
G1 F1200 X206.149 Y99.375 E0.27259
G1 X207.42 Y99.375 E0.31486
G1 X208.055 Y100.475 E0.35711
G1 X207.42 Y101.575 E0.39935
G1 X206.149 Y101.575 E0.44163
G1 X205.515 Y100.475 E0.48386
G1 F1500 E-6.01614
G1 F300 Z0.4
G0 F6000 X206.149 Y118.425 Z0.4
G1 F300 Z0.2
G1 F1500 E0.48386
G1 F1200 X207.42 Y118.425 E0.52613
G1 X208.055 Y119.525 E0.56837
G1 X207.42 Y120.625 E0.61062
G1 X206.149 Y120.625 E0.65289
G1 X205.515 Y119.525 E0.69512
G1 X206.149 Y118.425 E0.73735
G0 F6000 X205.977 Y119.525
G1 F1200 X206.381 Y118.825 E0.76423
G1 X207.188 Y118.825 E0.79107
G1 X207.593 Y119.525 E0.81797
G1 X207.188 Y120.225 E0.84487
G1 X206.381 Y120.225 E0.87171
G1 X205.977 Y119.525 E0.89859
G0 F6000 X206.438 Y119.525
G1 F1200 X206.612 Y119.225 E0.91012
G1 X206.958 Y119.225 E0.92163
G1 X207.131 Y119.525 E0.93315
G1 X206.958 Y119.825 E0.94467
G1 X206.612 Y119.825 E0.95618
G1 X206.438 Y119.525 E0.96771
G1 F1500 E-5.53229
G1 F300 Z0.4
G0 F6000 X162.335 Y118.89 Z0.4
G1 F300 Z0.2
G1 F1500 E0.96771
G1 F1200 X161.7 Y119.99 E1.00996
G1 X160.429 Y119.99 E1.05223
G1 X159.795 Y118.89 E1.09446
G1 X160.429 Y117.79 E1.13669
G1 X161.7 Y117.79 E1.17896
G1 X162.335 Y118.89 E1.2212
G1 F1500 E-5.2788
G1 F300 Z0.4
G0 F6000 X160.718 Y118.89 Z0.4
G1 F300 Z0.2
G1 F1500 E1.2212
G1 F1200 X160.892 Y118.59 E1.23274
G1 X161.238 Y118.59 E1.24425
G1 X161.411 Y118.89 E1.25577
G1 X161.238 Y119.19 E1.26728
G1 X160.892 Y119.19 E1.27879
G1 X160.718 Y118.89 E1.29033
G0 F6000 X160.257 Y118.89
G1 F1200 X160.661 Y118.19 E1.31721
G1 X161.468 Y118.19 E1.34405
G1 X161.873 Y118.89 E1.37095
G1 X161.468 Y119.59 E1.39784
G1 X160.661 Y119.59 E1.42469
G1 X160.257 Y118.89 E1.45157
G1 F1500 E-5.04843
G1 F300 Z0.4
G0 F6000 X160.429 Y102.21 Z0.4
G1 F300 Z0.2
G1 F1500 E1.45157
G1 F1200 X159.795 Y101.11 E1.4938
G1 X160.429 Y100.01 E1.53602
G1 X161.7 Y100.01 E1.5783
G1 X162.335 Y101.11 E1.62054
G1 X161.7 Y102.21 E1.66279
G1 X160.429 Y102.21 E1.70506
G0 F6000 X160.257 Y101.11
G1 F1200 X160.661 Y100.41 E1.73194
G1 X161.468 Y100.41 E1.75878
G1 X161.873 Y101.11 E1.78568
G1 X161.468 Y101.81 E1.81258
G1 X160.661 Y101.81 E1.83942
G1 X160.257 Y101.11 E1.8663
G0 F6000 X160.718 Y101.11
G1 F1200 X160.892 Y100.81 E1.87784
G1 X161.238 Y100.81 E1.88934
G1 X161.411 Y101.11 E1.90086
G1 X161.238 Y101.41 E1.91238
G1 X160.892 Y101.41 E1.92389
G1 X160.718 Y101.11 E1.93542
G1 F1500 E-4.56458
G1 F300 Z0.4
;MESH:feather-tft-case-bottom.stl
G0 F6000 X157.425 Y121.744 Z0.4
;TYPE:WALL-INNER
G1 F300 Z0.2
G1 F1500 E1.93542
G1 F1200 X159.072 Y121.744 E1.9902
G1 F1129.4 X159.332 Y121.719 E1.99943
G1 F1006.3 X159.592 Y121.693 E2.0098
G1 F909.1 X159.852 Y121.668 E2.02126
G1 F932 X159.593 Y121.479 E2.03499
G1 F1095.9 X159.333 Y121.291 E2.04668
G1 F1194 X159.199 Y121.061 E2.05558
G1 F1176.5 X159.064 Y120.83 E2.06465
G1 F1159.4 X158.93 Y120.6 E2.07382
G1 F1145.6 X158.795 Y120.369 E2.08314
G1 F1129.4 X158.661 Y120.138 E2.09258
G1 F1113.7 X158.526 Y119.908 E2.10213
G1 F1098.4 X158.392 Y119.677 E2.11184
G1 F1086 X158.257 Y119.446 E2.12167
G1 F1071.4 X158.123 Y119.216 E2.13159
G1 F1057.3 X157.988 Y118.985 E2.14169
G1 F995.9 X157.986 Y118.89 E2.1455
G1 F1059.6 X158.119 Y118.589 E2.15789
G1 F1200 X159.333 Y116.489 E2.23857
G1 X159.502 Y116.303 E2.24693
G1 X159.735 Y116.19 E2.25554
G1 X162.346 Y116.193 E2.34238
G1 X162.605 Y116.287 E2.35155
G1 X162.778 Y116.459 E2.35966
G1 X164.045 Y118.658 E2.44407
G1 X164.091 Y118.867 E2.45119
G1 X164.011 Y119.191 E2.46229
G1 X162.796 Y121.291 E2.54298
G1 F1088.4 X162.595 Y121.476 E2.553
G1 F917.8 X162.393 Y121.662 E2.56494
G1 X162.725 Y121.703 E2.57949
G1 F1088.4 X163.057 Y121.744 E2.59176
G1 F1200 X204.948 Y121.744 E3.98506
G1 X203.839 Y119.826 E4.05874
G1 X203.765 Y119.611 E4.06631
G1 X203.804 Y119.284 E4.07726
G1 X205.121 Y117.009 E4.16469
G1 X205.393 Y116.852 E4.17514
G1 X205.573 Y116.825 E4.18119
G1 X208.114 Y116.825 E4.26571
G1 X208.348 Y116.937 E4.27433
G1 X208.516 Y117.124 E4.28269
G1 X209.731 Y119.224 E4.36339
G1 F1059.6 X209.864 Y119.525 E4.37578
G1 F941.2 X209.859 Y119.638 E4.38058
G1 F958.1 X209.727 Y119.86 E4.39134
G1 F1002.1 X209.594 Y120.083 E4.40168
G1 F1052.6 X209.462 Y120.305 E4.41147
G1 F1108.5 X209.329 Y120.528 E4.42082
G1 F1167.9 X209.197 Y120.751 E4.42968
G1 F1200 X208.621 Y121.744 E4.46786
G1 X210.425 Y121.744 E4.52786
G1 F1194 X210.423 Y121.311 E4.54234
G1 F1182.3 X210.421 Y120.878 E4.55695
G1 F1167.9 X210.419 Y120.445 E4.57175
G1 F1156.6 X210.416 Y120.012 E4.58669
G1 F1098.4 X210.361 Y119.626 E4.60086
G1 F1086 X210.393 Y119.332 E4.61173
G1 F1159.4 X210.425 Y119.038 E4.62191
G1 F1200 X210.425 Y103.388 E5.14243
G1 F1197 X210.424 Y102.984 E5.1559
G1 F1188.1 X210.423 Y102.58 E5.16947
G1 F1179.4 X210.421 Y102.176 E5.18315
G1 F1170.7 X210.42 Y101.772 E5.19692
G1 F1162.2 X210.418 Y101.368 E5.21079
G1 F1153.8 X210.417 Y100.964 E5.22477
G1 F1098.4 X210.361 Y100.576 E5.23901
G1 F1086 X210.393 Y100.282 E5.24988
G1 F1159.4 X210.425 Y99.988 E5.26006
G1 F1200 X210.425 Y98.256 E5.31767
G1 X208.621 Y98.256 E5.37767
G1 X209.731 Y100.174 E5.45138
G1 F1059.6 X209.864 Y100.475 E5.46377
G1 F997.9 X209.86 Y100.574 E5.46773
G1 F1059.6 X209.726 Y100.804 E5.47776
G1 F1073.8 X209.591 Y101.035 E5.48771
G1 F1086 X209.457 Y101.265 E5.49749
G1 F1100.9 X209.322 Y101.496 E5.50719
G1 F1116.3 X209.187 Y101.727 E5.51675
G1 F1129.4 X209.053 Y101.957 E5.52616
G1 F1145.6 X208.918 Y102.188 E5.53548
G1 F1159.4 X208.783 Y102.419 E5.54469
G1 F1176.5 X208.649 Y102.649 E5.55372
G1 F1194 X208.514 Y102.88 E5.56267
G1 F1200 X208.348 Y103.062 E5.57086
G1 X208.115 Y103.175 E5.57947
G1 X205.573 Y103.175 E5.66402
G1 X205.297 Y103.109 E5.67346
G1 X205.109 Y102.97 E5.68124
G1 X203.805 Y100.717 E5.76782
G1 X203.765 Y100.388 E5.77884
G1 X203.839 Y100.174 E5.78637
G1 X204.948 Y98.256 E5.86006
G1 X163.057 Y98.256 E7.25336
G1 F1129.4 X162.797 Y98.281 E7.26259
G1 F1006.3 X162.537 Y98.307 E7.27295
G1 F909.1 X162.277 Y98.332 E7.28442
G1 F932 X162.536 Y98.521 E7.29815
G1 F1095.9 X162.796 Y98.709 E7.30984
G1 F1200 X164.011 Y100.809 E7.39053
G1 X164.091 Y101.134 E7.40166
G1 X164.045 Y101.342 E7.40875
G1 X162.738 Y103.611 E7.49584
G1 X162.517 Y103.76 E7.50471
G1 X162.346 Y103.807 E7.5106
G1 X159.735 Y103.81 E7.59745
G1 X159.501 Y103.697 E7.60609
G1 X159.333 Y103.511 E7.61443
G1 F1194 X159.199 Y103.281 E7.62332
G1 F1176.5 X159.064 Y103.05 E7.6324
G1 F1159.4 X158.93 Y102.82 E7.64156
G1 F1145.6 X158.795 Y102.589 E7.65089
G1 F1129.4 X158.661 Y102.358 E7.66032
G1 F1113.7 X158.526 Y102.128 E7.66988
G1 F1098.4 X158.392 Y101.897 E7.67958
G1 F1086 X158.257 Y101.666 E7.68942
G1 F1071.4 X158.123 Y101.436 E7.69933
G1 F1057.3 X157.988 Y101.205 E7.70943
G1 F995.9 X157.986 Y101.11 E7.71324
G1 F1059.6 X158.119 Y100.809 E7.72564
G1 F1200 X159.333 Y98.709 E7.80632
G1 F1088.4 X159.534 Y98.524 E7.81633
G1 F917.8 X159.736 Y98.338 E7.82827
G1 X159.404 Y98.297 E7.84282
G1 F1088.4 X159.072 Y98.256 E7.85509
G1 F1200 X157.425 Y98.256 E7.90987
G1 X157.425 Y100.623 E7.98859
G1 F1159.4 X157.457 Y100.919 E7.99884
G1 F1086 X157.489 Y101.216 E8.00982
G1 F1098.4 X157.434 Y101.597 E8.02381
G1 F1153.8 X157.433 Y102.001 E8.03778
G1 F1162.2 X157.432 Y102.405 E8.05166
G1 F1170.7 X157.431 Y102.809 E8.06543
G1 F1179.4 X157.429 Y103.213 E8.0791
G1 F1188.1 X157.428 Y103.617 E8.09268
G1 F1197 X157.427 Y104.021 E8.10615
G1 F1200 X157.425 Y118.403 E8.58449
G1 F1159.4 X157.457 Y118.699 E8.59474
G1 F1086 X157.489 Y118.996 E8.60572
G1 F1098.4 X157.434 Y119.377 E8.61971
G1 F1153.8 X157.433 Y119.772 E8.63337
G1 F1162.2 X157.431 Y120.167 E8.64694
G1 F1170.7 X157.43 Y120.562 E8.6604
G1 F1179.4 X157.428 Y120.957 E8.67377
G1 F1188.1 X157.427 Y121.352 E8.68704
G1 F1197 X157.425 Y121.747 E8.70021
G0 F6000 X157.025 Y122.144
;TYPE:WALL-OUTER
G1 F1200 X205.158 Y122.144 E10.30112
G1 F1263.2 X205.573 Y122.164 E10.31425
G1 F1329.6 X208.058 Y122.163 E10.38884
G1 F1263.2 X208.411 Y122.146 E10.40001
G1 F1206 X210.825 Y122.144 E10.4799
G1 F1200 X210.825 Y97.856 E11.28772
G1 X208.411 Y97.856 E11.36801
G1 F1266.5 X207.996 Y97.836 E11.3811
G1 F1333.3 X206.753 Y97.836 E11.41831
G1 F1326 X205.51 Y97.837 E11.45573
G1 F1263.2 X205.158 Y97.854 E11.46686
G1 F1209.1 X202.625 Y97.854 E11.55048
G1 X200.092 Y97.854 E11.63409
G1 X197.559 Y97.854 E11.71771
G1 X195.026 Y97.854 E11.80132
G1 X192.493 Y97.854 E11.88494
G1 X189.96 Y97.854 E11.96856
G1 F1206 X187.427 Y97.854 E12.05238
G1 X184.894 Y97.854 E12.13621
G1 X182.361 Y97.854 E12.22004
G1 X179.828 Y97.855 E12.30386
G1 X177.295 Y97.855 E12.38769
G1 X174.762 Y97.855 E12.47152
G1 X172.229 Y97.855 E12.55534
G1 F1203 X169.696 Y97.855 E12.63938
G1 X167.163 Y97.855 E12.72342
G1 X164.63 Y97.855 E12.80746
G1 X162.097 Y97.855 E12.89149
G1 X159.564 Y97.855 E12.97553
G1 X157.031 Y97.855 E13.05957
G1 F1200 X157.025 Y100.623 E13.15163
G1 X157.025 Y122.144 E13.86742
G1 F1500 E7.36742
G1 F300 Z0.4
G0 F6000 X159.679 Y121.091 Z0.4
G1 F300 Z0.2
G1 F1500 E13.86742
G1 F1203 X158.466 Y118.99 E13.94791
G1 X158.439 Y118.89 E13.95135
G1 F1200 X158.465 Y118.789 E13.95482
G1 X159.679 Y116.689 E14.03549
G1 X159.813 Y116.59 E14.04104
G1 X162.3 Y116.591 E14.12375
G1 X162.43 Y116.661 E14.12866
G1 X163.676 Y118.812 E14.21134
G1 X163.665 Y118.991 E14.21731
G1 X162.45 Y121.091 E14.298
G1 X162.311 Y121.188 E14.30364
G1 X159.853 Y121.19 E14.38539
G1 X159.679 Y121.091 E14.39205
G0 F6000 X159.853 Y121.667
;TYPE:WALL-INNER
G1 F864.9 X160.488 Y121.666 E14.42136
G1 F861.8 X161.123 Y121.665 E14.45077
G1 F857.1 X161.758 Y121.664 E14.48033
G1 F854.1 X162.393 Y121.662 E14.51001
G1 F1500 E8.01001
G1 F300 Z0.4
G0 F6000 X159.813 Y103.41 Z0.4
;TYPE:WALL-OUTER
G1 F300 Z0.2
G1 F1500 E14.51001
G1 F1200 X159.679 Y103.311 E14.51555
G1 F1203 X158.466 Y101.21 E14.59604
G1 X158.439 Y101.11 E14.59947
G1 F1200 X158.465 Y101.009 E14.60294
G1 X159.679 Y98.909 E14.68362
G1 X159.818 Y98.812 E14.68926
G1 X162.276 Y98.81 E14.77101
G1 X162.45 Y98.909 E14.77767
G1 X163.687 Y101.047 E14.85982
G1 X163.686 Y101.175 E14.86408
G1 X162.419 Y103.361 E14.94812
G1 X162.3 Y103.409 E14.95239
G1 X159.813 Y103.41 E15.0351
G1 F1500 E8.5351
G1 F300 Z0.4
G0 F6000 X159.736 Y98.338 Z0.4
;TYPE:WALL-INNER
G1 F300 Z0.2
G1 F1500 E15.0351
G1 F854.1 X160.371 Y98.337 E15.06478
G1 F857.1 X161.006 Y98.336 E15.09435
G1 F861.8 X161.641 Y98.335 E15.12376
G1 F864.9 X162.276 Y98.333 E15.15306
G1 F1500 E8.65306
G1 F300 Z0.4
G0 F6000 X205.54 Y102.773 Z0.4
;TYPE:WALL-OUTER
G1 F300 Z0.2
G1 F1500 E15.15306
G1 F1200 X205.399 Y102.676 E15.15875
G1 X204.185 Y100.576 E15.23943
G1 F1203 X204.157 Y100.423 E15.24459
G1 F1209.1 X205.401 Y98.275 E15.32653
G1 F1263.2 X205.542 Y98.196 E15.33164
G1 F1326 X206.769 Y98.196 E15.36857
G1 F1333.3 X207.996 Y98.196 E15.4053
G1 F1266.5 X208.17 Y98.274 E15.41131
G1 F1200 X209.385 Y100.374 E15.492
G1 X209.411 Y100.475 E15.49547
G1 F1203 X209.384 Y100.575 E15.49891
G1 X208.17 Y102.676 E15.57941
G1 F1200 X208.036 Y102.775 E15.58495
G1 X205.54 Y102.773 E15.66797
G1 F1500 E9.16797
G1 F300 Z0.4
G0 F6000 X205.399 Y121.726 Z0.4
G1 F300 Z0.2
G1 F1500 E15.66797
G1 F1200 X204.185 Y119.626 E15.74865
G1 X204.171 Y119.454 E15.75439
G1 X205.399 Y117.324 E15.83616
G1 X205.54 Y117.227 E15.84186
G1 X208.036 Y117.225 E15.92487
G1 X208.17 Y117.324 E15.93041
G1 X209.385 Y119.424 E16.01111
G1 X209.411 Y119.525 E16.01458
G1 F1203 X209.384 Y119.625 E16.01801
G1 F1206 X208.168 Y121.725 E16.09832
G1 F1263.2 X208.027 Y121.804 E16.10343
G1 F1329.6 X205.573 Y121.805 E16.17709
G1 F1263.2 X205.399 Y121.726 E16.18313
G1 F1500 E9.68313
G1 F300 Z0.4
G0 F6000 X163.157 Y121.383 Z0.4
;TYPE:SKIN
G1 F300 Z0.2
G1 F1500 E16.18313
G1 F1200 X204.321 Y121.383 E17.55225
G1 X203.513 Y119.976 E17.60621
G1 X203.406 Y119.668 E17.61706
G1 X203.413 Y119.364 E17.62717
G1 X203.484 Y119.116 E17.63575
G1 X204.798 Y116.854 E17.72276
G1 X204.953 Y116.689 E17.73029
G1 X205.26 Y116.514 E17.74204
G1 X205.578 Y116.465 E17.75274
G1 X208.197 Y116.465 E17.83985
G1 X208.564 Y116.645 E17.85345
G1 X208.831 Y116.95 E17.86693
G1 X210.065 Y119.069 E17.94849
G1 X210.065 Y103.385 E18.47014
G1 X210.047 Y100.988 E18.54987
G1 X208.808 Y103.085 E18.63088
G1 X208.564 Y103.355 E18.64298
G1 X208.197 Y103.535 E18.65658
G1 X205.546 Y103.533 E18.74475
G1 X205.259 Y103.485 E18.75443
G1 X205.008 Y103.358 E18.76378
G1 X204.793 Y103.14 E18.77397
G1 X203.484 Y100.884 E18.86072
G1 X203.413 Y100.637 E18.86927
G1 X203.406 Y100.331 E18.87945
G1 X203.529 Y99.988 E18.89157
G1 X204.322 Y98.616 E18.94427
G1 X163.16 Y98.617 E20.31333
G1 X164.322 Y100.626 E20.39052
G1 X164.422 Y100.877 E20.3995
G1 X164.455 Y101.147 E20.40855
G1 X164.372 Y101.51 E20.42094
G1 X163.061 Y103.763 E20.50763
G1 X162.742 Y104.056 E20.52204
G1 X162.443 Y104.166 E20.53264
G1 X159.833 Y104.169 E20.61945
G1 X159.556 Y104.122 E20.62879
G1 X159.285 Y103.989 E20.63883
G1 X159.017 Y103.688 E20.65224
G1 X157.803 Y101.623 E20.73191
G1 X157.786 Y104.025 E20.8118
G1 X157.786 Y118.387 E21.28948
G1 X157.795 Y118.428 E21.29088
G1 X159.019 Y116.311 E21.37221
G1 X159.285 Y116.011 E21.38555
G1 X159.587 Y115.863 E21.39673
G1 X159.835 Y115.831 E21.40505
G1 X162.444 Y115.834 E21.49183
G1 X162.747 Y115.951 E21.50263
G1 X163.057 Y116.22 E21.51628
G1 X164.37 Y118.489 E21.60347
G1 X164.455 Y118.853 E21.61591
G1 X164.422 Y119.123 E21.62495
G1 X164.322 Y119.374 E21.63394
G1 X163.157 Y121.383 E21.71118
G1 F1500 E15.21118
G1 F300 Z0.4
G0 F6000 X158.147 Y117.418 Z0.4
G1 F300 Z0.2
G1 F1500 E21.71118
G1 F1200 X157.985 Y117.255 E21.71882
G0 F6000 X158.355 Y117.06
G1 F1200 X157.985 Y116.69 E21.73623
G0 F6000 X157.985 Y116.124
G1 F1200 X158.562 Y116.701 E21.76337
G0 F6000 X158.769 Y116.343
G1 F1200 X157.985 Y115.558 E21.80027
G0 F6000 X157.985 Y114.993
G1 F1200 X159.009 Y116.017 E21.84843
G0 F6000 X159.325 Y115.767
G1 F1200 X157.985 Y114.427 E21.91146
G0 F6000 X157.985 Y113.861
G1 F1200 X159.763 Y115.64 E21.99512
G0 F6000 X160.32 Y115.631
G1 F1200 X157.985 Y113.296 E22.10495
G0 F6000 X157.985 Y112.73
G1 F1200 X160.886 Y115.631 E22.2414
G0 F6000 X161.452 Y115.631
G1 F1200 X157.985 Y112.164 E22.40448
G0 F6000 X157.985 Y111.599
G1 F1200 X162.017 Y115.631 E22.59413
G0 F6000 X162.649 Y115.697
G1 F1200 X157.985 Y111.033 E22.81351
G0 F6000 X157.985 Y110.467
G1 F1200 X168.7 Y121.183 E23.31754
G0 F6000 X168.135 Y121.183
G1 F1200 X163.441 Y116.489 E23.53833
G1 F1500 E17.03833
G1 F300 Z0.4
G0 F6000 X164.213 Y117.827 Z0.4
G1 F300 Z0.2
G1 F1500 E23.53833
G1 F1200 X167.569 Y121.183 E23.69619
G0 F6000 X167.003 Y121.183
G1 F1200 X164.656 Y118.835 E23.80661
G0 F6000 X164.561 Y119.306
G1 F1200 X166.438 Y121.183 E23.89489
G0 F6000 X165.872 Y121.183
G1 F1200 X164.372 Y119.683 E23.96545
G0 F6000 X164.164 Y120.041
G1 F1200 X165.306 Y121.183 E24.01917
G0 F6000 X164.741 Y121.183
G1 F1200 X163.957 Y120.399 E24.05604
G0 F6000 X163.749 Y120.757
