;FLAVOR:Marlin
;TIME:1870
;Filament used: 1.11829m
;Layer height: 0.2
;MINX:83.1
;MINY:97.066
;MINZ:0.2
;MAXX:136.9
;MAXY:122.936
;MAXZ:7.4
;Generated with Cura_SteamEngine main
M82 ;absolute extrusion mode
; Ender 3 Custom Start G-code
G92 E0 ; Reset Extruder
G28 ; Home all axes
M104 S175 ; Start heating up the nozzle most of the way
M190 S55 ; Start heating the bed, wait until target temperature reached
M109 S190.0 ; Finish heating the nozzle
G1 Z2.0 F3000 ; Move Z Axis up little to prevent scratching of Heat Bed
G1 X0.1 Y20 Z0.3 F5000.0 ; Move to start position
G1 X0.1 Y200.0 Z0.3 F1500.0 E15 ; Draw the first line
G1 X0.4 Y200.0 Z0.3 F5000.0 ; Move to side a little
G1 X0.4 Y20 Z0.3 F1500.0 E30 ; Draw the second line
G92 E0 ; Reset Extruder
G1 Z2.0 F3000 ; Move Z Axis up little to prevent scratching of Heat Bed
G1 X5 Y20 Z0.3 F5000.0 ; Move over to prevent blob squish
G92 E0
G92 E0
G1 F1500 E-6.5
;LAYER_COUNT:36
;LAYER:0
M107
G1 F300 Z0.4
G0 F6000 X132.846 Y100.475 Z0.4
;TYPE:SKIRT
G1 F300 Z0.2
G1 F1500 E0
G1 F1200 X132.86 Y100.461 E0.00066
G1 X132.86 Y100.489 E0.00159
G1 X132.846 Y100.475 E0.00225
G0 F6000 X132.436 Y100.475
G1 F1200 X132.464 Y100.328 E0.00723
G1 X132.563 Y100.178 E0.0132
G1 X132.713 Y100.079 E0.01918
G1 X132.86 Y100.051 E0.02416
G1 X133.007 Y100.079 E0.02914
G1 X133.157 Y100.178 E0.03511
G1 X133.256 Y100.328 E0.04109
G1 X133.284 Y100.475 E0.04607
G1 X133.256 Y100.622 E0.05104
G1 X133.157 Y100.772 E0.05702
G1 X133.007 Y100.871 E0.063
G1 X132.86 Y100.899 E0.06798
G1 X132.713 Y100.871 E0.07295
G1 X132.563 Y100.772 E0.07893
G1 X132.464 Y100.622 E0.08491
G1 X132.436 Y100.475 E0.08989
G0 F6000 X132.029 Y100.475
G1 F1200 X132.086 Y100.176 E0.10001
G1 X132.274 Y99.889 E0.11142
G1 X132.561 Y99.701 E0.12283
G1 X132.86 Y99.644 E0.13296
G1 X133.159 Y99.701 E0.14308
G1 X133.446 Y99.889 E0.15449
G1 X133.634 Y100.176 E0.1659
G1 X133.691 Y100.475 E0.17603
G1 X133.634 Y100.774 E0.18615
G1 X133.446 Y101.061 E0.19756
G1 X133.159 Y101.249 E0.20897
G1 X132.86 Y101.306 E0.2191
G1 X132.561 Y101.249 E0.22922
G1 X132.274 Y101.061 E0.24063
G1 X132.086 Y100.774 E0.25204
G1 X132.029 Y100.475 E0.26217
G1 F1500 E-6.23783
G1 F300 Z0.4
G0 F6000 X132.029 Y119.525 Z0.4
G1 F300 Z0.2
G1 F1500 E0.26217
G1 F1200 X132.086 Y119.226 E0.27229
G1 X132.274 Y118.939 E0.2837
G1 X132.561 Y118.751 E0.29511
G1 X132.86 Y118.694 E0.30524
G1 X133.159 Y118.751 E0.31536
G1 X133.446 Y118.939 E0.32677
G1 X133.634 Y119.226 E0.33819
G1 X133.691 Y119.525 E0.34831
G1 X133.634 Y119.824 E0.35843
G1 X133.446 Y120.111 E0.36984
G1 X133.159 Y120.299 E0.38126
G1 X132.86 Y120.356 E0.39138
G1 X132.561 Y120.299 E0.4015
G1 X132.274 Y120.111 E0.41291
G1 X132.086 Y119.824 E0.42433
G1 X132.029 Y119.525 E0.43445
G0 F6000 X132.436 Y119.525
G1 F1200 X132.464 Y119.378 E0.43943
G1 X132.563 Y119.228 E0.4454
G1 X132.713 Y119.129 E0.45138
G1 X132.86 Y119.101 E0.45636
G1 X133.007 Y119.129 E0.46134
G1 X133.157 Y119.228 E0.46731
G1 X133.256 Y119.378 E0.47329
G1 X133.284 Y119.525 E0.47827
G1 X133.256 Y119.672 E0.48325
G1 X133.157 Y119.822 E0.48922
G1 X133.007 Y119.921 E0.4952
G1 X132.86 Y119.949 E0.50018
G1 X132.713 Y119.921 E0.50516
G1 X132.563 Y119.822 E0.51113
G1 X132.464 Y119.672 E0.51711
G1 X132.436 Y119.525 E0.52209
G0 F6000 X132.846 Y119.525
G1 F1200 X132.86 Y119.511 E0.52275
G1 X132.86 Y119.539 E0.52368
G1 X132.846 Y119.525 E0.52434
G1 F1500 E-5.97566
G1 F300 Z0.4
G0 F6000 X87.726 Y118.304 Z0.4
G1 F300 Z0.2
G1 F1500 E0.52434
G1 F1200 X87.914 Y118.591 E0.53575
G1 X87.971 Y118.89 E0.54587
G1 X87.914 Y119.189 E0.556
G1 X87.726 Y119.476 E0.56741
G1 X87.439 Y119.664 E0.57882
G1 X87.14 Y119.721 E0.58894
G1 X86.841 Y119.664 E0.59907
G1 X86.554 Y119.476 E0.61048
G1 X86.366 Y119.189 E0.62189
G1 X86.309 Y118.89 E0.63201
G1 X86.366 Y118.591 E0.64214
G1 X86.554 Y118.304 E0.65355
G1 X86.841 Y118.116 E0.66496
G1 X87.14 Y118.059 E0.67508
G1 X87.439 Y118.116 E0.68521
G1 X87.726 Y118.304 E0.69662
G0 F6000 X87.126 Y118.89
G1 F1200 X87.14 Y118.876 E0.69728
G1 X87.14 Y118.904 E0.69821
G1 X87.126 Y118.89 E0.69887
G0 F6000 X86.716 Y118.89
G1 F1200 X86.744 Y118.743 E0.70384
G1 X86.843 Y118.593 E0.70982
G1 X86.993 Y118.494 E0.7158
G1 X87.14 Y118.466 E0.72078
G1 X87.287 Y118.494 E0.72575
G1 X87.437 Y118.593 E0.73173
G1 X87.536 Y118.743 E0.73771
G1 X87.564 Y118.89 E0.74269
G1 X87.536 Y119.037 E0.74766
G1 X87.437 Y119.187 E0.75364
G1 X87.287 Y119.286 E0.75962
G1 X87.14 Y119.314 E0.7646
G1 X86.993 Y119.286 E0.76957
G1 X86.843 Y119.187 E0.77555
G1 X86.744 Y119.037 E0.78153
G1 X86.716 Y118.89 E0.78651
G1 F1500 E-5.71349
G1 F300 Z0.4
G0 F6000 X86.366 Y101.409 Z0.4
G1 F300 Z0.2
G1 F1500 E0.78651
G1 F1200 X86.309 Y101.11 E0.79663
G1 X86.366 Y100.811 E0.80675
G1 X86.554 Y100.524 E0.81816
G1 X86.841 Y100.336 E0.82958
G1 X87.14 Y100.279 E0.8397
G1 X87.439 Y100.336 E0.84982
G1 X87.726 Y100.524 E0.86123
G1 X87.914 Y100.811 E0.87265
G1 X87.971 Y101.11 E0.88277
G1 X87.914 Y101.409 E0.89289
G1 X87.726 Y101.696 E0.90431
G1 X87.439 Y101.884 E0.91572
G1 X87.14 Y101.941 E0.92584
G1 X86.841 Y101.884 E0.93596
G1 X86.554 Y101.696 E0.94738
G1 X86.366 Y101.409 E0.95879
G0 F6000 X86.716 Y101.11
G1 F1200 X86.744 Y100.963 E0.96376
G1 X86.843 Y100.813 E0.96974
G1 X86.993 Y100.714 E0.97572
G1 X87.14 Y100.686 E0.9807
G1 X87.287 Y100.714 E0.98567
G1 X87.437 Y100.813 E0.99165
G1 X87.536 Y100.963 E0.99763
G1 X87.564 Y101.11 E1.00261
G1 X87.536 Y101.257 E1.00758
G1 X87.437 Y101.407 E1.01356
G1 X87.287 Y101.506 E1.01954
G1 X87.14 Y101.534 E1.02452
G1 X86.993 Y101.506 E1.02949
G1 X86.843 Y101.407 E1.03547
G1 X86.744 Y101.257 E1.04145
G1 X86.716 Y101.11 E1.04643
G0 F6000 X87.126 Y101.11
G1 F1200 X87.14 Y101.096 E1.04708
G1 X87.14 Y101.124 E1.04802
G1 X87.126 Y101.11 E1.04867
G1 F1500 E-5.45133
G1 F300 Z0.4
;MESH:feather-tft-case-top.stl
G0 F6000 X87.142 Y103.571 Z0.4
;TYPE:WALL-INNER
G1 F300 Z0.2
G1 F1500 E1.04867
G1 F1200 X86.345 Y103.419 E1.07566
G1 X86.128 Y103.331 E1.08345
G1 X85.502 Y102.92 E1.10836
G1 X85.33 Y102.748 E1.11645
G1 X84.919 Y102.122 E1.14135
G1 X84.831 Y101.905 E1.14914
G1 X84.701 Y101.223 E1.17223
G1 X84.687 Y101.069 E1.17738
G1 X84.831 Y100.315 E1.20291
G1 X84.919 Y100.098 E1.2107
G1 X85.33 Y99.472 E1.2356
G1 X85.502 Y99.3 E1.24369
G1 X86.128 Y98.889 E1.2686
G1 X86.345 Y98.801 E1.27639
G1 F1188.1 X87.036 Y98.665 E1.30005
G1 F1173.6 X87.254 Y98.667 E1.30746
G1 F1188.1 X87.935 Y98.801 E1.33078
G1 F1200 X88.152 Y98.889 E1.33857
G1 X88.778 Y99.3 E1.36347
G1 X88.95 Y99.472 E1.37156
G1 X89.361 Y100.098 E1.39647
G1 X89.449 Y100.315 E1.40426
G1 X89.601 Y101.111 E1.43121
G1 X89.429 Y102.011 E1.46169
G1 X88.882 Y102.853 E1.49508
G1 X88.048 Y103.395 E1.52817
G1 X87.142 Y103.571 E1.55886
G0 F6000 X87.897 Y103.018
;TYPE:WALL-OUTER
G1 F1200 X87.14 Y103.163 E1.5845
G1 X86.381 Y103.019 E1.61019
G1 X85.687 Y102.563 E1.63781
G1 X85.231 Y101.869 E1.66543
G1 X85.094 Y101.148 E1.68984
G1 X85.094 Y101.072 E1.69237
G1 X85.231 Y100.351 E1.71678
G1 X85.687 Y99.657 E1.7444
G1 X86.381 Y99.201 E1.77202
G1 X87.139 Y99.057 E1.79768
G1 X87.899 Y99.201 E1.82341
G1 X88.593 Y99.657 E1.85103
G1 X89.049 Y100.351 E1.87865
G1 X89.193 Y101.11 E1.90434
G1 X89.046 Y101.873 E1.93018
G1 X88.591 Y102.565 E1.95773
G1 X87.897 Y103.018 E1.9853
G1 F1500 E-4.5147
G1 F300 Z0.4
G0 F6000 X87.244 Y121.335 Z0.4
;TYPE:WALL-INNER
G1 F300 Z0.2
G1 F1500 E1.9853
G1 F1173.6 X87.026 Y121.333 E1.99271
G1 F1188.1 X86.345 Y121.199 E2.01602
G1 F1200 X86.128 Y121.111 E2.02381
G1 X85.502 Y120.7 E2.04872
G1 X85.33 Y120.528 E2.05681
G1 X84.919 Y119.902 E2.08172
G1 X84.831 Y119.685 E2.08951
G1 X84.701 Y119.003 E2.1126
G1 X84.687 Y118.849 E2.11774
G1 X84.831 Y118.095 E2.14327
G1 X84.919 Y117.878 E2.15106
G1 X85.33 Y117.252 E2.17597
G1 X85.502 Y117.08 E2.18406
G1 X86.128 Y116.669 E2.20897
G1 X86.345 Y116.581 E2.21675
G1 X87.142 Y116.429 E2.24374
G1 X88.048 Y116.605 E2.27444
G1 X88.882 Y117.147 E2.30752
G1 X89.429 Y117.989 E2.34092
G1 X89.601 Y118.889 E2.37139
G1 X89.449 Y119.685 E2.39834
G1 X89.361 Y119.902 E2.40613
G1 X88.95 Y120.528 E2.43104
G1 X88.778 Y120.7 E2.43913
G1 X88.152 Y121.111 E2.46404
G1 X87.935 Y121.199 E2.47183
G1 F1188.1 X87.244 Y121.335 E2.49548
G0 F6000 X87.899 Y120.799
;TYPE:WALL-OUTER
G1 F1200 X87.141 Y120.943 E2.52115
G1 X86.381 Y120.799 E2.54687
G1 X85.687 Y120.343 E2.57449
G1 X85.231 Y119.649 E2.60211
G1 X85.094 Y118.928 E2.62652
G1 X85.094 Y118.852 E2.62905
G1 X85.231 Y118.131 E2.65346
G1 X85.687 Y117.437 E2.68108
G1 X86.381 Y116.981 E2.7087
G1 X87.14 Y116.837 E2.73439
G1 X87.897 Y116.982 E2.76003
G1 X88.591 Y117.435 E2.78759
G1 X89.046 Y118.127 E2.81514
G1 X89.193 Y118.89 E2.84098
G1 X89.049 Y119.649 E2.86668
G1 X88.593 Y120.343 E2.8943
G1 X87.899 Y120.799 E2.92192
G1 F1500 E-3.57808
G1 F300 Z0.4
G0 F6000 X100.605 Y118.318 Z0.4
;TYPE:WALL-INNER
G1 F300 Z0.2
G1 F1500 E2.92192
G1 F1200 X100.439 Y118.231 E2.92815
G1 X100.319 Y118.111 E2.93379
G1 X100.2 Y117.829 E2.94397
G1 X100.2 Y102.25 E3.46213
G1 X100.246 Y102.019 E3.46997
G1 X100.44 Y101.769 E3.48049
G1 X100.726 Y101.65 E3.4908
G1 X126.6 Y101.65 E4.35137
G1 X126.824 Y101.693 E4.35896
G1 X127.004 Y101.806 E4.36602
G1 X127.104 Y101.922 E4.37112
G1 X127.195 Y102.166 E4.37978
G1 X127.195 Y117.834 E4.9009
G1 X127.104 Y118.078 E4.90956
G1 X127.004 Y118.194 E4.91465
G1 X126.677 Y118.35 E4.9267
G1 X100.8 Y118.35 E5.78738
G1 X100.605 Y118.318 E5.79395
G0 F6000 X100.639 Y117.871
;TYPE:WALL-OUTER
G1 F1200 X100.603 Y117.787 E5.79699
G1 X100.6 Y102.25 E6.31375
G1 X100.68 Y102.089 E6.31973
G1 X100.765 Y102.052 E6.32282
G1 X126.658 Y102.05 E7.18402
G1 X126.768 Y102.14 E7.18875
G1 X126.799 Y102.222 E7.19166
G1 X126.799 Y117.778 E7.70906
G1 X126.735 Y117.898 E7.71358
G1 X126.635 Y117.948 E7.7173
G1 X100.749 Y117.95 E8.57827
G1 X100.639 Y117.871 E8.58278
G1 F1500 E2.08278
G1 F300 Z0.4
G0 F6000 X131.845 Y121.744 Z0.4
;TYPE:WALL-INNER
G1 F300 Z0.2
G1 F1500 E8.58278
G1 F1200 X131.222 Y121.335 E8.60756
G1 X131.049 Y121.163 E8.61568
G1 X130.639 Y120.537 E8.64057
G1 X130.551 Y120.32 E8.64835
G1 X130.402 Y119.54 E8.67477
G1 X130.57 Y118.624 E8.70574
G1 X131.05 Y117.887 E8.73499
G1 X131.222 Y117.715 E8.74308
G1 X131.949 Y117.238 E8.772
G1 X132.859 Y117.064 E8.80282
G1 X133.655 Y117.216 E8.82977
G1 X133.872 Y117.304 E8.83756
G1 X134.498 Y117.715 E8.86247
G1 X134.67 Y117.887 E8.87056
G1 X135.081 Y118.513 E8.89547
G1 X135.169 Y118.73 E8.90325
G1 X135.321 Y119.527 E8.93024
G1 X135.169 Y120.32 E8.9571
G1 X135.081 Y120.537 E8.96488
G1 X134.671 Y121.163 E8.98977
G1 X134.498 Y121.335 E8.99789
G1 X133.875 Y121.744 E9.02267
G1 X136.5 Y121.744 E9.10998
G1 X136.5 Y98.256 E9.8912
G1 X133.875 Y98.256 E9.9785
G1 X134.498 Y98.665 E10.00329
G1 X134.671 Y98.837 E10.01141
G1 X135.081 Y99.463 E10.0363
G1 X135.169 Y99.68 E10.04408
G1 X135.321 Y100.477 E10.07107
G1 X135.169 Y101.27 E10.09792
G1 X135.081 Y101.487 E10.10571
G1 X134.67 Y102.113 E10.13062
G1 X134.498 Y102.285 E10.13871
G1 X133.872 Y102.696 E10.16362
G1 X133.655 Y102.784 E10.17141
G1 X132.859 Y102.936 E10.19836
G1 X131.949 Y102.762 E10.22918
G1 X131.222 Y102.285 E10.2581
G1 X131.05 Y102.113 E10.26619
G1 X130.579 Y101.39 E10.29489
G1 X130.399 Y100.476 E10.32587
G1 X130.551 Y99.68 E10.35282
G1 X130.639 Y99.463 E10.36061
G1 X131.049 Y98.837 E10.3855
G1 X131.222 Y98.665 E10.39361
G1 X131.845 Y98.256 E10.4184
G1 X83.501 Y98.257 E12.02633
G1 X83.501 Y121.743 E12.80748
G1 X131.845 Y121.744 E14.4154
G0 F6000 X132.074 Y122.143
;TYPE:WALL-OUTER
G1 F1179.4 X132.335 Y122.127 E14.42425
G1 F1137.4 X132.597 Y122.111 E14.43346
G1 F1100.9 X132.859 Y122.095 E14.44298
G1 X133.121 Y122.11 E14.45249
G1 F1137.4 X133.383 Y122.126 E14.46171
G1 F1179.4 X133.645 Y122.142 E14.47059
G1 F1200 X136.9 Y122.144 E14.57885
G1 X136.9 Y97.856 E15.38667
G1 X133.646 Y97.857 E15.4949
G1 F1179.4 X133.385 Y97.873 E15.50375
G1 F1137.4 X133.123 Y97.889 E15.51296
G1 F1100.9 X132.861 Y97.905 E15.52248
G1 X132.599 Y97.89 E15.53199
G1 F1137.4 X132.337 Y97.874 E15.5412
G1 F1179.4 X132.075 Y97.858 E15.55008
G1 F1200 X83.101 Y97.857 E17.17897
G1 X83.101 Y122.143 E17.98672
G1 X132.074 Y122.143 E19.61557
G0 F6000 X132.858 Y121.626
G1 F1039 X132.604 Y121.561 E19.62564
G1 F1054.9 X132.349 Y121.495 E19.63561
G1 F1073.8 X132.094 Y121.429 E19.6454
G1 F1100.9 X131.865 Y121.279 E19.65532
G1 F1137.4 X131.636 Y121.128 E19.66495
G1 F1179.4 X131.407 Y120.978 E19.67421
G1 F1200 X130.951 Y120.284 E19.70183
G1 X130.814 Y119.563 E19.72624
G1 X130.811 Y119.514 E19.72787
G1 X130.951 Y118.777 E19.75283
G1 X131.407 Y118.072 E19.78075
G1 X132.105 Y117.619 E19.80843
G1 X132.86 Y117.472 E19.83401
G1 X133.619 Y117.616 E19.85971
G1 X134.313 Y118.072 E19.88732
G1 X134.769 Y118.766 E19.91494
G1 X134.91 Y119.525 E19.94062
G1 X134.769 Y120.284 E19.9663
G1 X134.313 Y120.978 E19.99392
G1 F1179.4 X134.084 Y121.128 E20.00318
G1 F1137.4 X133.855 Y121.279 E20.01281
G1 F1100.9 X133.626 Y121.429 E20.02273
G1 F1073.8 X133.37 Y121.494 E20.03255
G1 F1054.9 X133.114 Y121.56 E20.04255
G1 F1039 X132.858 Y121.626 E20.0527
G1 F1500 E13.5527
G1 F300 Z0.4
G0 F6000 X132.105 Y102.381 Z0.4
G1 F300 Z0.2
G1 F1500 E20.0527
G1 F1200 X131.407 Y101.928 E20.08038
G1 X130.951 Y101.232 E20.10806
G1 X130.814 Y100.513 E20.1324
G1 X130.811 Y100.461 E20.13413
G1 X130.951 Y99.716 E20.15935
G1 X131.407 Y99.022 E20.18696
G1 F1179.4 X131.636 Y98.872 E20.19623
G1 F1137.4 X131.865 Y98.721 E20.20585
G1 F1100.9 X132.094 Y98.571 E20.21578
G1 F1073.8 X132.35 Y98.506 E20.2256
G1 F1054.9 X132.606 Y98.44 E20.2356
G1 F1039 X132.862 Y98.374 E20.24575
G1 X133.116 Y98.439 E20.25583
G1 F1054.9 X133.371 Y98.505 E20.26579
G1 F1073.8 X133.626 Y98.571 E20.27558
G1 F1100.9 X133.855 Y98.721 E20.28551
G1 F1137.4 X134.084 Y98.872 E20.29513
G1 F1179.4 X134.313 Y99.022 E20.3044
G1 F1200 X134.769 Y99.716 E20.33201
G1 X134.91 Y100.475 E20.35769
G1 X134.769 Y101.234 E20.38337
G1 X134.313 Y101.928 E20.41099
G1 X133.619 Y102.384 E20.43861
G1 X132.86 Y102.528 E20.4643
G1 X132.105 Y102.381 E20.48988
G1 F1500 E13.98988
G1 F300 Z0.4
G0 F6000 X100.482 Y118.661 Z0.4
;TYPE:SKIN
G1 F300 Z0.2
G1 F1500 E20.48988
G1 F1200 X100.202 Y118.502 E20.50059
G1 X100.006 Y118.285 E20.51032
G1 X99.843 Y117.887 E20.52462
G1 X99.84 Y102.151 E21.04801
G1 X99.855 Y102.073 E21.05065
G1 X100.006 Y101.715 E21.06357
G1 X100.228 Y101.47 E21.07457
G1 X100.677 Y101.292 E21.09063
G1 X126.634 Y101.293 E21.95396
G1 X126.957 Y101.355 E21.9649
G1 X127.248 Y101.54 E21.97637
G1 X127.395 Y101.711 E21.98387
G1 X127.524 Y101.976 E21.99368
G1 X127.559 Y102.222 E22.00194
G1 X127.555 Y117.877 E22.52263
G1 X127.498 Y118.101 E22.53032
G1 X127.253 Y118.46 E22.54477
G1 X126.96 Y118.643 E22.55626
G1 X126.732 Y118.708 E22.56415
G1 X100.771 Y118.708 E23.42761
G1 X100.482 Y118.661 E23.43735
G1 F1500 E16.93735
G1 F300 Z0.4
G0 F6000 X88.397 Y121.383 Z0.4
G1 F300 Z0.2
G1 F1500 E23.43735
G1 F1200 X130.764 Y121.382 E24.84648
G1 X130.338 Y120.737 E24.87219
G1 X130.205 Y120.42 E24.88363
G1 X130.036 Y119.503 E24.91464
G1 X130.232 Y118.485 E24.94912
G1 X130.77 Y117.662 E24.98182
G1 X131.029 Y117.409 E24.99387
G1 X131.811 Y116.9 E25.0249
G1 X132.859 Y116.698 E25.0604
G1 X133.719 Y116.861 E25.08951
G1 X134.075 Y117.004 E25.10227
G1 X134.691 Y117.409 E25.12679
G1 X134.95 Y117.663 E25.13886
G1 X135.4 Y118.347 E25.16609
G1 X135.512 Y118.626 E25.17609
G1 F1191.1 X135.608 Y119.075 E25.19147
G1 F1167.9 X135.705 Y119.525 E25.2072
G1 X135.609 Y119.974 E25.2229
G1 F1191.1 X135.513 Y120.423 E25.23828
G1 F1200 X135.396 Y120.71 E25.24859
G1 X134.956 Y121.382 E25.27531
G1 X136.14 Y121.384 E25.31469
G1 X136.14 Y120.443 E25.34598
G1 F1185.2 X136.135 Y120.11 E25.3572
G1 F1153.8 X136.13 Y119.777 E25.36872
G1 F1126.8 X136.124 Y119.444 E25.38052
G1 X136.129 Y119.164 E25.39044
G1 F1153.8 X136.134 Y118.884 E25.40012
G1 F1185.2 X136.14 Y118.604 E25.40955
G1 F1200 X136.14 Y101.393 E25.98199
G1 F1185.2 X136.135 Y101.06 E25.99321
G1 F1153.8 X136.13 Y100.727 E26.00473
G1 F1126.8 X136.124 Y100.394 E26.01653
G1 X136.129 Y100.115 E26.02641
G1 F1153.8 X136.134 Y99.836 E26.03606
G1 F1185.2 X136.14 Y99.557 E26.04546
G1 F1200 X136.139 Y98.617 E26.07673
G1 X134.956 Y98.618 E26.11607
G1 X135.397 Y99.291 E26.14284
G1 X135.513 Y99.577 E26.1531
G1 F1191.1 X135.609 Y100.026 E26.16849
