;FLAVOR:Marlin
;TIME:1946
;Filament used: 1.12179m
;Layer height: 0.2
;MINX:83.1
;MINY:95.02
;MINZ:0.2
;MAXX:136.9
;MAXY:120.88
;MAXZ:7.4
;Generated with Cura_SteamEngine main
M82 ;absolute extrusion mode
; Ender 3 Custom Start G-code
G92 E0 ; Reset Extruder
G28 ; Home all axes
M104 S175 ; Start heating up the nozzle most of the way
M190 S55 ; Start heating the bed, wait until target temperature reached
M109 S190.0 ; Finish heating the nozzle
G1 Z2.0 F3000 ; Move Z Axis up little to prevent scratching of Heat Bed
G1 X0.1 Y20 Z0.3 F5000.0 ; Move to start position
G1 X0.1 Y200.0 Z0.3 F1500.0 E15 ; Draw the first line
G1 X0.4 Y200.0 Z0.3 F5000.0 ; Move to side a little
G1 X0.4 Y20 Z0.3 F1500.0 E30 ; Draw the second line
G92 E0 ; Reset Extruder
G1 Z2.0 F3000 ; Move Z Axis up little to prevent scratching of Heat Bed
G1 X5 Y20 Z0.3 F5000.0 ; Move over to prevent blob squish
G92 E0
G92 E0
G1 F1500 E-6.5
;LAYER_COUNT:36
;LAYER:0
M107
G1 F300 Z0.4
G0 F6000 X132.818 Y98.422 Z0.4
;TYPE:SKIRT
G1 F300 Z0.2
G1 F1500 E0
G1 F1200 X132.863 Y98.383 E0.00198
G1 X132.902 Y98.428 E0.00396
G1 X132.857 Y98.467 E0.00594
G1 X132.818 Y98.422 E0.00792
G0 F6000 X132.424 Y98.342
G1 F1200 X132.489 Y98.183 E0.01364
G1 X132.618 Y98.054 E0.0197
G1 X132.777 Y97.989 E0.02542
G1 X132.943 Y97.989 E0.03094
G1 X133.102 Y98.054 E0.03665
G1 X133.231 Y98.183 E0.04272
G1 X133.296 Y98.342 E0.04843
G1 X133.296 Y98.508 E0.05395
G1 X133.231 Y98.667 E0.05967
G1 X133.102 Y98.796 E0.06573
G1 X132.943 Y98.861 E0.07145
G1 X132.777 Y98.861 E0.07697
G1 X132.618 Y98.796 E0.08268
G1 X132.489 Y98.667 E0.08875
G1 X132.424 Y98.508 E0.09446
G1 X132.424 Y98.342 E0.09998
G0 F6000 X132.028 Y98.273
G1 F1200 X132.153 Y97.963 E0.1111
G1 X132.398 Y97.718 E0.12263
G1 X132.708 Y97.593 E0.13374
G1 X133.012 Y97.593 E0.14385
G1 X133.322 Y97.718 E0.15497
G1 X133.567 Y97.963 E0.16649
G1 X133.692 Y98.273 E0.17761
G1 X133.692 Y98.577 E0.18772
G1 X133.567 Y98.887 E0.19884
G1 X133.322 Y99.132 E0.21036
G1 X133.012 Y99.257 E0.22148
G1 X132.708 Y99.257 E0.23159
G1 X132.398 Y99.132 E0.24271
G1 X132.153 Y98.887 E0.25423
G1 X132.028 Y98.577 E0.26535
G1 X132.028 Y98.273 E0.27546
G1 F1500 E-6.22454
G1 F300 Z0.4
G0 F6000 X132.028 Y117.323 Z0.4
G1 F300 Z0.2
G1 F1500 E0.27546
G1 F1200 X132.153 Y117.013 E0.28658
G1 X132.398 Y116.768 E0.2981
G1 X132.708 Y116.643 E0.30922
G1 X133.012 Y116.643 E0.31933
G1 X133.322 Y116.768 E0.33045
G1 X133.567 Y117.013 E0.34197
G1 X133.692 Y117.323 E0.35309
G1 X133.692 Y117.627 E0.3632
G1 X133.567 Y117.937 E0.37432
G1 X133.322 Y118.182 E0.38584
G1 X133.012 Y118.307 E0.39696
G1 X132.708 Y118.307 E0.40707
G1 X132.398 Y118.182 E0.41819
G1 X132.153 Y117.937 E0.42971
G1 X132.028 Y117.627 E0.44083
G1 X132.028 Y117.323 E0.45094
G0 F6000 X132.424 Y117.392
G1 F1200 X132.489 Y117.233 E0.45665
G1 X132.618 Y117.104 E0.46272
G1 X132.777 Y117.039 E0.46844
G1 X132.943 Y117.039 E0.47396
G1 X133.102 Y117.104 E0.47967
G1 X133.231 Y117.233 E0.48574
G1 X133.296 Y117.392 E0.49145
G1 X133.296 Y117.558 E0.49697
G1 X133.232 Y117.715 E0.50261
G1 X133.102 Y117.846 E0.50875
G1 X132.943 Y117.911 E0.51446
G1 X132.777 Y117.911 E0.51998
G1 X132.618 Y117.846 E0.5257
G1 X132.488 Y117.715 E0.53184
G1 X132.424 Y117.558 E0.53747
G1 X132.424 Y117.392 E0.543
G0 F6000 X132.818 Y117.472
G1 F1200 X132.863 Y117.433 E0.54498
G1 X132.902 Y117.478 E0.54696
G1 X132.857 Y117.517 E0.54894
G1 X132.818 Y117.472 E0.55092
G1 F1500 E-5.94908
G1 F300 Z0.4
G0 F6000 X87.602 Y116.133 Z0.4
G1 F300 Z0.2
G1 F1500 E0.55092
G1 F1200 X87.847 Y116.378 E0.56244
G1 X87.972 Y116.688 E0.57356
G1 X87.972 Y116.992 E0.58367
G1 X87.847 Y117.302 E0.59479
G1 X87.602 Y117.547 E0.60631
G1 X87.292 Y117.672 E0.61743
G1 X86.988 Y117.672 E0.62754
G1 X86.678 Y117.547 E0.63866
G1 X86.433 Y117.302 E0.65018
G1 X86.308 Y116.992 E0.6613
G1 X86.308 Y116.688 E0.67141
G1 X86.433 Y116.378 E0.68253
G1 X86.678 Y116.133 E0.69405
G1 X86.988 Y116.008 E0.70517
G1 X87.292 Y116.008 E0.71528
G1 X87.602 Y116.133 E0.7264
G0 F6000 X87.098 Y116.837
G1 F1200 X87.143 Y116.798 E0.72838
G1 X87.182 Y116.843 E0.73036
G1 X87.137 Y116.882 E0.73234
G1 X87.098 Y116.837 E0.73432
G0 F6000 X86.704 Y116.757
G1 F1200 X86.769 Y116.598 E0.74003
G1 X86.898 Y116.469 E0.7461
G1 X87.057 Y116.404 E0.75181
G1 X87.223 Y116.404 E0.75733
G1 X87.382 Y116.469 E0.76305
G1 X87.511 Y116.598 E0.76912
G1 X87.576 Y116.757 E0.77483
G1 X87.576 Y116.923 E0.78035
G1 X87.511 Y117.082 E0.78606
G1 X87.382 Y117.211 E0.79213
G1 X87.223 Y117.276 E0.79784
G1 X87.057 Y117.276 E0.80337
G1 X86.898 Y117.211 E0.80908
G1 X86.769 Y117.082 E0.81515
G1 X86.704 Y116.923 E0.82086
G1 X86.704 Y116.757 E0.82638
G1 F1500 E-5.67362
G1 F300 Z0.4
G0 F6000 X86.308 Y99.212 Z0.4
G1 F300 Z0.2
G1 F1500 E0.82638
G1 F1200 X86.308 Y98.908 E0.83649
G1 X86.433 Y98.598 E0.84761
G1 X86.678 Y98.353 E0.85913
G1 X86.988 Y98.228 E0.87025
G1 X87.292 Y98.228 E0.88036
G1 X87.602 Y98.353 E0.89148
G1 X87.847 Y98.598 E0.903
G1 X87.972 Y98.908 E0.91412
G1 X87.972 Y99.212 E0.92423
G1 X87.847 Y99.522 E0.93535
G1 X87.602 Y99.767 E0.94687
G1 X87.292 Y99.892 E0.95799
G1 X86.988 Y99.892 E0.9681
G1 X86.678 Y99.767 E0.97922
G1 X86.433 Y99.522 E0.99074
G1 X86.308 Y99.212 E1.00186
G0 F6000 X86.704 Y98.977
G1 F1200 X86.769 Y98.818 E1.00757
G1 X86.898 Y98.689 E1.01364
G1 X87.057 Y98.624 E1.01935
G1 X87.223 Y98.624 E1.02487
G1 X87.382 Y98.689 E1.03059
G1 X87.511 Y98.818 E1.03666
G1 X87.576 Y98.977 E1.04237
G1 X87.576 Y99.143 E1.04789
G1 X87.512 Y99.3 E1.05353
G1 X87.382 Y99.431 E1.05967
G1 X87.223 Y99.496 E1.06538
G1 X87.057 Y99.496 E1.0709
G1 X86.898 Y99.431 E1.07662
G1 X86.768 Y99.3 E1.08275
G1 X86.704 Y99.143 E1.08839
G1 X86.704 Y98.977 E1.09391
G0 F6000 X87.098 Y99.057
G1 F1200 X87.143 Y99.018 E1.09589
G1 X87.182 Y99.063 E1.09787
G1 X87.137 Y99.102 E1.09986
G1 X87.098 Y99.057 E1.10184
G1 F1500 E-5.39816
G1 F300 Z0.4
;MESH:feather-tft-case-top.stl
G0 F6000 X87.595 Y101.471 Z0.4
;TYPE:WALL-INNER
G1 F300 Z0.2
G1 F1500 E1.10184
G1 F1200 X87.14 Y101.513 E1.11703
G1 X86.688 Y101.472 E1.13213
G1 X86.238 Y101.341 E1.14772
G1 X85.795 Y101.111 E1.16432
G1 X85.404 Y100.794 E1.18106
G1 X85.088 Y100.403 E1.19778
G1 X84.859 Y99.963 E1.21428
G1 X84.729 Y99.502 E1.23021
G1 X84.692 Y99.118 E1.24304
G1 X84.692 Y99.007 E1.24673
G1 X84.727 Y98.612 E1.25992
G1 X84.859 Y98.158 E1.27565
G1 X85.089 Y97.715 E1.29225
G1 X85.405 Y97.325 E1.30894
G1 X85.794 Y97.009 E1.32561
G1 F1182.3 X86.231 Y96.782 E1.34224
G1 F1145.6 X86.696 Y96.636 E1.35922
G1 F1156.6 X87.139 Y96.608 E1.37454
G1 F1179.4 X87.574 Y96.636 E1.38929
G1 X88.047 Y96.781 E1.40603
G1 F1191.1 X88.486 Y97.009 E1.42261
G1 F1197 X88.875 Y97.325 E1.43932
G1 F1200 X89.191 Y97.715 E1.45601
G1 X89.421 Y98.158 E1.47261
G1 X89.552 Y98.607 E1.48817
G1 X89.593 Y99.058 E1.50323
G1 X89.552 Y99.513 E1.51843
G1 X89.418 Y99.971 E1.5343
G1 X89.188 Y100.403 E1.55058
G1 X88.875 Y100.795 E1.56726
G1 X88.472 Y101.116 E1.5844
G1 X88.065 Y101.328 E1.59966
G1 X87.595 Y101.471 E1.616
G0 F6000 X87.884 Y100.97
;TYPE:WALL-OUTER
G1 F1200 X87.53 Y101.073 E1.62826
G1 X87.159 Y101.11 E1.64066
G1 X86.783 Y101.079 E1.65321
G1 X86.405 Y100.973 E1.66627
G1 X86.033 Y100.784 E1.68015
G1 X85.676 Y100.494 E1.69545
G1 X85.416 Y100.166 E1.70937
G1 X85.227 Y99.795 E1.72321
G1 X85.123 Y99.433 E1.73574
G1 X85.09 Y99.081 E1.7475
G1 X85.121 Y98.702 E1.76015
G1 X85.227 Y98.325 E1.77317
G1 X85.416 Y97.953 E1.78705
G1 X85.706 Y97.596 E1.80235
G1 X86.033 Y97.336 E1.81624
G1 X86.405 Y97.147 E1.83012
G1 X86.767 Y97.043 E1.84265
G1 X87.121 Y97.01 E1.85448
G1 X87.497 Y97.041 E1.86702
G1 X87.875 Y97.147 E1.88008
G1 X88.247 Y97.336 E1.89396
G1 X88.604 Y97.626 E1.90926
G1 X88.864 Y97.953 E1.92315
G1 X89.053 Y98.325 E1.93703
G1 X89.159 Y98.702 E1.95006
G1 X89.19 Y99.077 E1.96257
G1 X89.152 Y99.454 E1.97517
G1 X89.05 Y99.805 E1.98733
G1 X88.854 Y100.183 E2.00149
G1 X88.597 Y100.503 E2.01514
G1 X88.268 Y100.771 E2.02926
G1 X87.884 Y100.97 E2.04364
G1 F1500 E-4.45636
G1 F300 Z0.4
G0 F6000 X87.584 Y119.264 Z0.4
;TYPE:WALL-INNER
G1 F300 Z0.2
G1 F1500 E2.04364
G1 F1145.6 X87.139 Y119.295 E2.05918
G1 F1167.9 X86.704 Y119.264 E2.07409
G1 F1179.4 X86.233 Y119.118 E2.09077
G1 F1194 X85.795 Y118.891 E2.10726
G1 F1200 X85.407 Y118.577 E2.12387
G1 X85.088 Y118.183 E2.14073
G1 X84.859 Y117.743 E2.15723
G1 X84.729 Y117.282 E2.17316
G1 X84.69 Y116.842 E2.18785
G1 X84.726 Y116.394 E2.2028
G1 X84.859 Y115.938 E2.2186
G1 X85.089 Y115.495 E2.2352
G1 X85.405 Y115.105 E2.25189
G1 X85.795 Y114.789 E2.26859
G1 X86.238 Y114.559 E2.28519
G1 X86.688 Y114.428 E2.30078
G1 X87.142 Y114.387 E2.31594
G1 X87.583 Y114.43 E2.33068
G1 X88.043 Y114.559 E2.34657
G1 X88.495 Y114.799 E2.36359
G1 X88.88 Y115.11 E2.38005
G1 X89.187 Y115.489 E2.39627
G1 X89.42 Y115.944 E2.41327
G1 X89.55 Y116.393 E2.42882
G1 X89.593 Y116.836 E2.44362
G1 X89.552 Y117.292 E2.45885
G1 X89.42 Y117.745 E2.47454
G1 X89.192 Y118.184 E2.491
G1 X88.873 Y118.577 E2.50783
G1 X88.486 Y118.891 E2.52441
G1 F1182.3 X88.049 Y119.118 E2.54103
G1 F1145.6 X87.584 Y119.264 E2.55801
G0 F6000 X87.159 Y118.89
;TYPE:WALL-OUTER
G1 F1200 X86.783 Y118.859 E2.57056
G1 X86.405 Y118.753 E2.58362
G1 X86.033 Y118.564 E2.5975
G1 X85.676 Y118.274 E2.61279
G1 X85.416 Y117.946 E2.62672
G1 X85.227 Y117.575 E2.64056
G1 X85.123 Y117.213 E2.65309
G1 X85.09 Y116.842 E2.66548
G1 X85.121 Y116.482 E2.6775
G1 X85.227 Y116.105 E2.69052
G1 X85.416 Y115.733 E2.7044
G1 X85.706 Y115.376 E2.7197
G1 X86.033 Y115.116 E2.73359
G1 X86.405 Y114.927 E2.74747
G1 X86.783 Y114.821 E2.76053
G1 X87.159 Y114.79 E2.77308
G1 X87.497 Y114.821 E2.78437
G1 X87.875 Y114.927 E2.79742
G1 X88.247 Y115.116 E2.8113
G1 X88.584 Y115.384 E2.82562
G1 X88.843 Y115.7 E2.83921
G1 X89.053 Y116.105 E2.85439
G1 X89.159 Y116.482 E2.86741
G1 X89.19 Y116.857 E2.87993
G1 X89.152 Y117.234 E2.89253
G1 X89.053 Y117.575 E2.90434
G1 X88.864 Y117.946 E2.91819
G1 X88.574 Y118.304 E2.93351
G1 X88.247 Y118.564 E2.94741
G1 X87.875 Y118.753 E2.96128
G1 X87.513 Y118.857 E2.97381
G1 X87.159 Y118.89 E2.98564
G1 F1500 E-3.51436
G1 F300 Z0.4
G0 F6000 X100.427 Y116.171 Z0.4
;TYPE:WALL-INNER
G1 F300 Z0.2
G1 F1500 E2.98564
G1 F1200 X100.307 Y116.044 E2.99145
G1 X100.201 Y115.779 E3.00094
G1 F1197 X100.201 Y115.11 E3.02325
G1 F1188.1 X100.201 Y114.441 E3.04572
G1 F1182.3 X100.201 Y113.772 E3.06831
G1 F923.1 X100.084 Y113.377 E3.08612
G1 F916 X99.879 Y113.7 E3.10279
G1 F1165 X99.656 Y114.137 E3.11959
G1 F1188.1 X99.391 Y114.465 E3.13376
G1 F1200 X99.051 Y114.739 E3.14828
G1 X98.671 Y114.937 E3.16253
G1 X98.278 Y115.047 E3.17611
G1 X97.901 Y115.083 E3.1887
G1 X97.512 Y115.048 E3.20169
G1 X97.125 Y114.935 E3.2151
G1 X96.756 Y114.741 E3.22897
G1 X96.41 Y114.468 E3.24363
G1 X96.141 Y114.131 E3.25797
G1 F1176.5 X95.947 Y113.76 E3.27217
G1 F1132.1 X95.81 Y113.311 E3.28872
G1 F1025.6 X95.75 Y113.042 E3.29945
G1 X95.69 Y113.311 E3.31017
G1 F1132.1 X95.553 Y113.76 E3.32672
G1 F1176.5 X95.359 Y114.131 E3.34093
G1 F1200 X95.09 Y114.468 E3.35527
G1 X94.744 Y114.741 E3.36993
G1 X94.372 Y114.937 E3.38391
G1 X93.978 Y115.047 E3.39752
G1 X93.601 Y115.083 E3.41011
G1 X93.209 Y115.047 E3.42321
G1 X92.822 Y114.931 E3.43664
G1 X92.442 Y114.732 E3.45091
G1 X92.104 Y114.456 E3.46543
G1 X91.845 Y114.137 E3.47909
G1 X91.644 Y113.753 E3.49351
G1 X91.539 Y113.385 E3.50624
G1 X91.502 Y113.037 E3.51788
G1 X91.5 Y112.962 E3.52037
G1 X91.535 Y112.594 E3.53267
G1 X91.65 Y112.2 E3.54632
G1 X91.843 Y111.824 E3.56037
G1 X92.115 Y111.493 E3.57462
G1 X92.45 Y111.219 E3.58902
G1 X92.803 Y111.037 E3.60223
G1 X93.181 Y110.922 E3.61537
G1 X93.58 Y110.88 E3.62871
G1 X93.983 Y110.911 E3.64216
G1 X94.376 Y111.025 E3.65577
G1 X94.744 Y111.219 E3.6696
G1 X95.081 Y111.489 E3.68397
G1 F1191.1 X95.356 Y111.821 E3.69841
G1 F1167.9 X95.554 Y112.201 E3.71306
G1 F1134.8 X95.689 Y112.649 E3.72951
G1 F1027.8 X95.75 Y112.923 E3.74041
G1 X95.811 Y112.649 E3.75131
G1 F1134.8 X95.946 Y112.201 E3.76777
G1 F1167.9 X96.144 Y111.821 E3.78241
G1 F1191.1 X96.419 Y111.489 E3.79686
G1 F1200 X96.756 Y111.219 E3.81122
G1 X97.124 Y111.025 E3.82506
G1 X97.512 Y110.912 E3.8385
G1 X97.9 Y110.877 E3.85146
G1 X98.288 Y110.912 E3.86441
G1 X98.673 Y111.024 E3.87775
G1 X99.051 Y111.221 E3.89193
G1 X99.39 Y111.494 E3.9064
G1 X99.652 Y111.817 E3.92024
G1 X99.828 Y112.152 E3.93282
G1 X99.871 Y112.262 E3.93675
G1 F1050.3 X100.089 Y112.627 E3.95291
G1 X100.2 Y112.216 E3.96908
G1 F1200 X100.2 Y100.121 E4.37137
G1 X100.32 Y99.839 E4.38156
G1 X100.44 Y99.719 E4.3872
G1 X100.726 Y99.6 E4.39751
G1 X126.6 Y99.6 E5.25808
G1 X126.824 Y99.642 E5.26566
G1 X127.004 Y99.755 E5.27273
G1 X127.117 Y99.894 E5.27869
G1 X127.198 Y100.143 E5.2874
G1 X127.198 Y115.757 E5.80672
G1 X127.144 Y115.956 E5.81358
G1 X127.004 Y116.145 E5.8214
G1 X126.677 Y116.3 E5.83344
G1 X100.8 Y116.3 E6.69411
G1 X100.597 Y116.265 E6.70096
G1 X100.427 Y116.171 E6.70742
G0 F6000 X100.634 Y115.813
;TYPE:WALL-OUTER
G1 F1200 X100.602 Y115.735 E6.71023
G1 X100.6 Y100.2 E7.22692
G1 X100.68 Y100.039 E7.2329
G1 X100.765 Y100.002 E7.23598
G1 X126.6 Y100 E8.09526
G1 X126.735 Y100.051 E8.10006
G1 X126.8 Y100.181 E8.10489
G1 X126.8 Y115.719 E8.62169
G1 X126.735 Y115.849 E8.62652
G1 X126.635 Y115.898 E8.63023
G1 X100.746 Y115.9 E9.4913
G1 X100.634 Y115.813 E9.49602
G1 F1500 E2.99602
G1 F300 Z0.4
G0 F6000 X98.209 Y114.653 Z0.4
G1 F300 Z0.2
G1 F1500 E9.49602
G1 F1200 X97.881 Y114.68 E9.50696
G1 X97.57 Y114.648 E9.51736
G1 X97.294 Y114.568 E9.52692
G1 X96.97 Y114.403 E9.53901
G1 X96.682 Y114.167 E9.5514
G1 X96.469 Y113.895 E9.56289
G1 X96.312 Y113.586 E9.57441
G1 X96.232 Y113.31 E9.58397
G1 X96.2 Y113.001 E9.5943
G1 X96.232 Y112.649 E9.60606
G1 X96.312 Y112.374 E9.61559
G1 X96.469 Y112.064 E9.62714
G1 X96.699 Y111.775 E9.63943
G1 X96.97 Y111.557 E9.651
G1 X97.274 Y111.399 E9.66239
G1 X97.607 Y111.305 E9.6739
G1 X97.919 Y111.28 E9.68431
G1 X98.23 Y111.312 E9.69471
G1 X98.506 Y111.392 E9.70427
G1 X98.816 Y111.549 E9.71582
G1 X99.117 Y111.793 E9.72871
G1 X99.331 Y112.064 E9.7402
G1 X99.473 Y112.337 E9.75043
G1 X99.575 Y112.686 E9.76252
G1 X99.6 Y112.996 E9.77287
G1 X99.574 Y113.289 E9.78265
G1 X99.473 Y113.623 E9.79426
G1 X99.31 Y113.928 E9.80576
G1 X99.118 Y114.167 E9.81596
G1 X98.816 Y114.411 E9.82887
G1 X98.506 Y114.568 E9.84043
G1 X98.209 Y114.653 E9.8507
G1 F1500 E3.3507
G1 F300 Z0.4
G0 F6000 X100.084 Y113.377 Z0.4
;TYPE:WALL-INNER
G1 F300 Z0.2
G1 F1500 E9.8507
G1 F778 X100.099 Y112.914 E9.87447
G1 F780.5 X100.086 Y112.64 E9.8885
G1 F1500 E3.3885
G1 F300 Z0.4
G0 F6000 X94.206 Y114.568 Z0.4
;TYPE:WALL-OUTER
G1 F300 Z0.2
G1 F1500 E9.8885
G1 F1200 X93.909 Y114.653 E9.89877
G1 X93.581 Y114.68 E9.90972
G1 X93.27 Y114.648 E9.92012
G1 X92.974 Y114.561 E9.93038
G1 X92.665 Y114.4 E9.94197
G1 X92.394 Y114.18 E9.95358
G1 X92.187 Y113.924 E9.96453
G1 X92.012 Y113.586 E9.97718
G1 X91.929 Y113.298 E9.98715
G1 X91.9 Y113.001 E9.99708
G1 X91.932 Y112.649 E10.00883
G1 X92.027 Y112.337 E10.01968
G1 X92.169 Y112.064 E10.02992
G1 X92.397 Y111.777 E10.04211
G1 X92.659 Y111.564 E10.05334
G1 X92.967 Y111.402 E10.06491
G1 X93.277 Y111.31 E10.07567
G1 X93.581 Y111.28 E10.08583
G1 X93.893 Y111.305 E10.09624
G1 X94.226 Y111.399 E10.10775
G1 X94.53 Y111.557 E10.11914
G1 X94.801 Y111.775 E10.13071
G1 X95.031 Y112.064 E10.143
G1 X95.188 Y112.374 E10.15455
G1 X95.268 Y112.649 E10.16408
G1 X95.3 Y113.001 E10.17583
G1 X95.268 Y113.31 E10.18617
G1 X95.188 Y113.586 E10.19572
G1 X95.031 Y113.895 E10.20725
G1 X94.818 Y114.167 E10.21874
G1 X94.53 Y114.403 E10.23113
G1 X94.206 Y114.568 E10.24322
G1 F1500 E3.74322
G1 F300 Z0.4
G0 F6000 X131.846 Y119.697 Z0.4
;TYPE:WALL-INNER
G1 F300 Z0.2
G1 F1500 E10.24322
G1 F1200 X131.511 Y119.524 E10.25576
G1 X131.123 Y119.209 E10.27238
G1 X130.808 Y118.818 E10.28908
G1 X130.58 Y118.38 E10.30551
G1 X130.448 Y117.927 E10.3212
G1 X130.407 Y117.476 E10.33626
G1 X130.449 Y117.02 E10.35149
G1 X130.582 Y116.573 E10.367
G1 X130.808 Y116.131 E10.38352
G1 X131.125 Y115.74 E10.40026
G1 X131.515 Y115.424 E10.41695
G1 X131.958 Y115.194 E10.43355
G1 X132.408 Y115.063 E10.44914
G1 X132.86 Y115.022 E10.46424
G1 X133.312 Y115.063 E10.47933
G1 X133.762 Y115.194 E10.49492
G1 X134.205 Y115.424 E10.51152
G1 X134.595 Y115.74 E10.52822
G1 X134.911 Y116.13 E10.54491
