;FLAVOR:Marlin
;TIME:2422
;Filament used: 1.5366m
;Layer height: 0.2
;MINX:83.1
;MINY:97.07
;MINZ:0.2
;MAXX:136.9
;MAXY:122.93
;MAXZ:7.4
;Generated with Cura_SteamEngine main
M82 ;absolute extrusion mode
; Ender 3 Custom Start G-code
G92 E0 ; Reset Extruder
G28 ; Home all axes
M104 S175 ; Start heating up the nozzle most of the way
M190 S55 ; Start heating the bed, wait until target temperature reached
M109 S190.0 ; Finish heating the nozzle
G1 Z2.0 F3000 ; Move Z Axis up little to prevent scratching of Heat Bed
G1 X0.1 Y20 Z0.3 F5000.0 ; Move to start position
G1 X0.1 Y200.0 Z0.3 F1500.0 E15 ; Draw the first line
G1 X0.4 Y200.0 Z0.3 F5000.0 ; Move to side a little
G1 X0.4 Y20 Z0.3 F1500.0 E30 ; Draw the second line
G92 E0 ; Reset Extruder
G1 Z2.0 F3000 ; Move Z Axis up little to prevent scratching of Heat Bed
G1 X5 Y20 Z0.3 F5000.0 ; Move over to prevent blob squish
G92 E0
G92 E0
G1 F1500 E-6.5
;LAYER_COUNT:37
;LAYER:0
M107
G1 F300 Z0.4
G0 F6000 X132.629 Y100.075 Z0.4
G0 X132.399 Y100.475
;TYPE:SKIRT
G1 F300 Z0.2
G1 F1500 E0
G1 F1200 X132.629 Y100.075 E0.01535
G1 X133.091 Y100.075 E0.03071
G1 X133.321 Y100.475 E0.04606
G1 X133.091 Y100.875 E0.06141
G1 X132.629 Y100.875 E0.07677
G1 X132.399 Y100.475 E0.09212
G0 F6000 X131.937 Y100.475
G1 F1200 X132.399 Y99.675 E0.12285
G1 X133.321 Y99.675 E0.15351
G1 X133.783 Y100.475 E0.18424
G1 X133.321 Y101.275 E0.21496
G1 X132.399 Y101.275 E0.24563
G1 X131.937 Y100.475 E0.27636
G0 F6000 X131.475 Y100.475
G1 F1200 X132.167 Y99.275 E0.32243
G1 X133.553 Y99.275 E0.36853
G1 X134.245 Y100.475 E0.4146
G1 X133.553 Y101.675 E0.46067
G1 X132.167 Y101.675 E0.50677
G1 X131.475 Y100.475 E0.55284
G1 F1500 E-5.94716
G1 F300 Z0.4
G0 F6000 X132.167 Y118.325 Z0.4
G1 F300 Z0.2
G1 F1500 E0.55284
G1 F1200 X133.553 Y118.325 E0.59894
G1 X134.245 Y119.525 E0.64502
G1 X133.553 Y120.725 E0.69109
G1 X132.167 Y120.725 E0.73719
G1 X131.475 Y119.525 E0.78326
G1 X132.167 Y118.325 E0.82933
G0 F6000 X131.937 Y119.525
G1 F1200 X132.399 Y118.725 E0.86006
G1 X133.321 Y118.725 E0.89073
G1 X133.783 Y119.525 E0.92145
G1 X133.321 Y120.325 E0.95218
G1 X132.399 Y120.325 E0.98284
G1 X131.937 Y119.525 E1.01357
G0 F6000 X132.399 Y119.525
G1 F1200 X132.629 Y119.125 E1.02892
G1 X133.091 Y119.125 E1.04428
G1 X133.321 Y119.525 E1.05963
G1 X133.091 Y119.925 E1.07498
G1 X132.629 Y119.925 E1.09034
G1 X132.399 Y119.525 E1.10569
G1 F1500 E-5.39431
G1 F300 Z0.4
G0 F6000 X88.525 Y118.89 Z0.4
G1 F300 Z0.2
G1 F1500 E1.10569
G1 F1200 X87.833 Y120.09 E1.15176
G1 X86.447 Y120.09 E1.19786
G1 X85.755 Y118.89 E1.24393
G1 X86.447 Y117.69 E1.29001
G1 X87.833 Y117.69 E1.33611
G1 X88.525 Y118.89 E1.38218
G1 F1500 E-5.11782
G1 F300 Z0.4
G0 F6000 X86.679 Y118.89 Z0.4
G1 F300 Z0.2
G1 F1500 E1.38218
G1 F1200 X86.909 Y118.49 E1.39753
G1 X87.371 Y118.49 E1.41289
G1 X87.601 Y118.89 E1.42824
G1 X87.371 Y119.29 E1.44358
G1 X86.909 Y119.29 E1.45895
G1 X86.679 Y118.89 E1.4743
G0 F6000 X86.217 Y118.89
G1 F1200 X86.679 Y118.09 E1.50502
G1 X87.601 Y118.09 E1.53569
G1 X88.063 Y118.89 E1.56642
G1 X87.601 Y119.69 E1.59714
G1 X86.679 Y119.69 E1.62781
G1 X86.217 Y118.89 E1.65853
G1 F1500 E-4.84147
G1 F300 Z0.4
G0 F6000 X86.447 Y102.31 Z0.4
G1 F300 Z0.2
G1 F1500 E1.65853
G1 F1200 X85.755 Y101.11 E1.70461
G1 X86.447 Y99.91 E1.75068
G1 X87.833 Y99.91 E1.79678
G1 X88.525 Y101.11 E1.84285
G1 X87.833 Y102.31 E1.88893
G1 X86.447 Y102.31 E1.93502
G0 F6000 X86.217 Y101.11
G1 F1200 X86.679 Y100.31 E1.96575
G1 X87.601 Y100.31 E1.99642
G1 X88.063 Y101.11 E2.02714
G1 X87.601 Y101.91 E2.05787
G1 X86.679 Y101.91 E2.08853
G1 X86.217 Y101.11 E2.11926
G0 F6000 X86.679 Y101.11
G1 F1200 X86.909 Y100.71 E2.13461
G1 X87.371 Y100.71 E2.14997
G1 X87.601 Y101.11 E2.16532
G1 X87.371 Y101.51 E2.18067
G1 X86.909 Y101.51 E2.19603
G1 X86.679 Y101.11 E2.21138
G1 F1500 E-4.28862
G1 F300 Z0.4
;MESH:feather-tft-case-bottom.stl
G0 F6000 X88.518 Y121.713 Z0.4
;TYPE:WALL-INNER
G1 F300 Z0.2
G1 F1500 E2.21138
G1 F1071.4 X88.825 Y121.728 E2.22283
G1 F1153.8 X89.132 Y121.743 E2.23346
G1 F1200 X130.908 Y121.743 E3.62294
G1 X129.799 Y119.826 E3.6966
G1 X129.725 Y119.612 E3.70413
G1 X129.765 Y119.283 E3.71515
G1 X131.089 Y116.994 E3.8031
G1 X131.321 Y116.788 E3.81342
G1 X131.527 Y116.725 E3.82059
G1 X134.247 Y116.725 E3.91105
G1 X134.481 Y116.837 E3.91968
G1 X134.649 Y117.024 E3.92804
G1 X135.92 Y119.224 E4.01255
G1 F1132.1 X136.026 Y119.525 E4.0238
G1 F1095.9 X136.018 Y119.668 E4.02902
G1 F1129.4 X135.884 Y119.898 E4.03842
G1 F1137.4 X135.75 Y120.129 E4.04779
G1 F1145.6 X135.616 Y120.36 E4.0571
G1 F1153.8 X135.482 Y120.591 E4.06634
G1 F1162.2 X135.348 Y120.822 E4.07551
G1 F1170.7 X135.213 Y121.053 E4.08463
G1 F1179.4 X135.079 Y121.283 E4.09364
G1 F1188.1 X134.945 Y121.514 E4.10261
G1 F1197 X134.811 Y121.745 E4.11151
G1 F1200 X136.5 Y121.744 E4.16769
G1 F1197 X136.499 Y121.156 E4.18729
G1 F1185.2 X136.497 Y120.568 E4.2071
G1 F1173.6 X136.495 Y119.98 E4.22709
G1 F1108.5 X136.473 Y119.672 E4.23821
G1 F1088.4 X136.486 Y119.37 E4.24929
G1 F1162.2 X136.5 Y119.068 E4.25968
G1 F1200 X136.5 Y118.343 E4.28379
G1 X136.5 Y117.617 E4.30794
G1 F1197 X136.5 Y116.891 E4.33214
G1 X136.5 Y116.165 E4.35635
G1 X136.499 Y115.439 E4.38056
G1 F1194 X136.499 Y114.713 E4.40483
G1 X136.499 Y113.987 E4.42909
G1 F1191.1 X136.499 Y113.261 E4.45342
G1 X136.499 Y112.535 E4.47775
G1 F1188.1 X136.498 Y111.809 E4.50214
G1 X136.498 Y111.083 E4.52653
G1 F1185.2 X136.498 Y110.357 E4.55097
G1 X136.498 Y109.631 E4.57542
G1 X136.498 Y108.905 E4.59987
G1 F1182.3 X136.497 Y108.179 E4.62438
G1 X136.497 Y107.453 E4.64889
G1 F1179.4 X136.497 Y106.727 E4.67346
G1 X136.497 Y106.001 E4.69803
G1 F1176.5 X136.497 Y105.275 E4.72266
G1 X136.496 Y104.549 E4.74729
G1 F1173.6 X136.496 Y103.823 E4.77198
G1 X136.496 Y103.097 E4.79667
G1 X136.496 Y102.371 E4.82136
G1 F1170.7 X136.496 Y101.645 E4.84611
G1 X136.495 Y100.919 E4.87086
G1 F1108.5 X136.473 Y100.622 E4.88158
G1 F1088.4 X136.486 Y100.32 E4.89267
G1 F1162.2 X136.5 Y100.018 E4.90305
G1 F1200 X136.5 Y98.256 E4.96165
G1 X134.812 Y98.257 E5.0178
G1 X135.92 Y100.174 E5.09144
G1 F1132.1 X136.026 Y100.475 E5.10269
G1 F1095.9 X136.018 Y100.618 E5.10791
G1 F1129.4 X135.881 Y100.854 E5.11755
G1 F1137.4 X135.744 Y101.09 E5.12713
G1 F1142.9 X135.607 Y101.326 E5.13666
G1 F1151.1 X135.47 Y101.562 E5.14612
G1 F1159.4 X135.333 Y101.798 E5.15551
G1 F1165 X135.196 Y102.034 E5.16486
G1 F1173.6 X135.059 Y102.271 E5.17417
G1 F1182.3 X134.922 Y102.507 E5.18338
G1 F1188.1 X134.785 Y102.743 E5.19255
G1 F1197 X134.647 Y102.979 E5.20166
G1 F1200 X134.481 Y103.162 E5.20988
G1 X134.249 Y103.275 E5.21847
G1 X131.527 Y103.275 E5.309
G1 X131.321 Y103.212 E5.31616
G1 X131.089 Y103.006 E5.32648
G1 X129.765 Y100.717 E5.41443
G1 X129.725 Y100.388 E5.42546
G1 X129.799 Y100.174 E5.43299
G1 X130.908 Y98.257 E5.50665
G1 X89.132 Y98.257 E6.89612
G1 F1162.2 X88.77 Y98.27 E6.90856
G1 F1090.9 X88.408 Y98.283 E6.92182
G1 X88.669 Y98.446 E6.93307
G1 F1162.2 X88.929 Y98.609 E6.94361
G1 F1200 X90.201 Y100.809 E7.02814
G1 X90.281 Y101.134 E7.03927
G1 X90.235 Y101.342 E7.04635
G1 X88.868 Y103.716 E7.13747
G1 X88.542 Y103.91 E7.15008
G1 X85.751 Y103.91 E7.24291
G1 X85.519 Y103.797 E7.2515
G1 X85.351 Y103.611 E7.25983
G1 F1197 X85.214 Y103.375 E7.26893
G1 F1188.1 X85.077 Y103.139 E7.2781
G1 F1179.4 X84.94 Y102.903 E7.28733
G1 F1173.6 X84.803 Y102.667 E7.29661
G1 F1165 X84.666 Y102.431 E7.30596
G1 F1156.6 X84.529 Y102.195 E7.31538
G1 F1148.3 X84.391 Y101.959 E7.32488
G1 F1140.1 X84.254 Y101.723 E7.33443
G1 F1134.8 X84.117 Y101.487 E7.34403
G1 F1126.8 X83.98 Y101.251 E7.3537
G1 F1093.4 X83.974 Y101.11 E7.35885
G1 F1129.4 X84.079 Y100.809 E7.37011
G1 F1200 X85.351 Y98.609 E7.45464
G1 F1153.8 X85.556 Y98.448 E7.46365
G1 F1071.4 X85.762 Y98.287 E7.47339
G1 X85.455 Y98.272 E7.48484
G1 F1153.8 X85.148 Y98.257 E7.49548
G1 F1200 X83.501 Y98.257 E7.55025
G1 X83.501 Y100.654 E7.62998
G1 F1159.4 X83.514 Y100.956 E7.64038
G1 F1086 X83.528 Y101.258 E7.6515
G1 F1106 X83.507 Y101.566 E7.66264
G1 F1170.7 X83.506 Y102.201 E7.68429
G1 F1179.4 X83.504 Y102.836 E7.70577
G1 F1188.1 X83.502 Y103.471 E7.72711
G1 F1197 X83.501 Y104.106 E7.74828
G1 F1200 X83.501 Y118.434 E8.22483
G1 F1159.4 X83.514 Y118.736 E8.23524
G1 F1086 X83.528 Y119.038 E8.24635
G1 F1106 X83.507 Y119.346 E8.25749
G1 F1170.7 X83.506 Y119.946 E8.27794
G1 F1179.4 X83.504 Y120.546 E8.29825
G1 F1188.1 X83.502 Y121.146 E8.3184
G1 F1197 X83.5 Y121.746 E8.33841
G1 F1200 X85.148 Y121.743 E8.39322
G1 F1162.2 X85.51 Y121.73 E8.40566
G1 F1090.9 X85.872 Y121.717 E8.41892
G1 X85.611 Y121.554 E8.43017
G1 F1162.2 X85.351 Y121.391 E8.44071
G1 F1197 X85.214 Y121.155 E8.44981
G1 F1188.1 X85.077 Y120.919 E8.45898
G1 F1179.4 X84.94 Y120.683 E8.46821
G1 F1173.6 X84.803 Y120.447 E8.47749
G1 F1165 X84.666 Y120.211 E8.48684
G1 F1156.6 X84.529 Y119.975 E8.49626
G1 F1148.3 X84.391 Y119.739 E8.50576
G1 F1140.1 X84.254 Y119.503 E8.51531
G1 F1134.8 X84.117 Y119.267 E8.52491
G1 F1126.8 X83.98 Y119.031 E8.53458
G1 F1093.4 X83.974 Y118.89 E8.53973
G1 F1129.4 X84.079 Y118.589 E8.55099
G1 F1200 X85.351 Y116.389 E8.63552
G1 X85.52 Y116.203 E8.64387
G1 X85.752 Y116.09 E8.65246
G1 X88.542 Y116.09 E8.74525
G1 X88.868 Y116.284 E8.75787
G1 X90.235 Y118.658 E8.84899
G1 X90.281 Y118.867 E8.8561
G1 X90.201 Y119.191 E8.8672
G1 X88.929 Y121.391 E8.95173
G1 F1153.8 X88.724 Y121.552 E8.96074
G1 F1071.4 X88.518 Y121.713 E8.97048
G0 F6000 X88.444 Y121.288
;TYPE:WALL-OUTER
G1 F1200 X85.871 Y121.29 E9.05606
G1 X85.697 Y121.191 E9.06272
G1 X84.425 Y118.991 E9.14724
G1 X84.399 Y118.89 E9.15071
G1 X84.425 Y118.789 E9.15418
G1 X85.697 Y116.589 E9.2387
G1 X85.831 Y116.49 E9.24424
G1 X88.448 Y116.493 E9.33128
G1 X88.564 Y116.562 E9.33577
G1 X89.866 Y118.812 E9.42223
G1 X89.855 Y118.991 E9.4282
G1 X88.583 Y121.191 E9.51272
G1 X88.444 Y121.288 E9.51836
G0 F6000 X88.518 Y121.713
;TYPE:WALL-INNER
G1 F1039 X87.856 Y121.714 E9.54379
G1 F1043.5 X87.194 Y121.715 E9.56911
G1 F1050.3 X86.532 Y121.716 E9.59427
G1 F1054.9 X85.87 Y121.717 E9.61931
G1 F1500 E3.11931
G1 F300 Z0.4
G0 F6000 X88.448 Y103.507 Z0.4
;TYPE:WALL-OUTER
G1 F300 Z0.2
G1 F1500 E9.61931
G1 F1200 X85.831 Y103.51 E9.70636
G1 X85.697 Y103.411 E9.7119
G1 X84.425 Y101.211 E9.79642
G1 X84.399 Y101.11 E9.79989
G1 X84.425 Y101.009 E9.80336
G1 X85.697 Y98.809 E9.88788
G1 X85.836 Y98.712 E9.89352
G1 X88.409 Y98.71 E9.9791
G1 X88.583 Y98.809 E9.98575
G1 X89.877 Y101.047 E10.07174
G1 X89.876 Y101.175 E10.07599
G1 X88.574 Y103.425 E10.16246
G1 X88.448 Y103.507 E10.16746
G1 F1500 E3.66746
G1 F300 Z0.4
G0 F6000 X88.409 Y98.283 Z0.4
;TYPE:WALL-INNER
G1 F300 Z0.2
G1 F1500 E10.16746
G1 F1054.9 X87.747 Y98.284 E10.1925
G1 F1050.3 X87.085 Y98.285 E10.21766
G1 F1043.5 X86.423 Y98.286 E10.24298
G1 F1039 X85.761 Y98.287 E10.26841
G1 F1500 E3.76841
G1 F300 Z0.4
G0 F6000 X131.538 Y97.967 Z0.4
;TYPE:WALL-OUTER
G1 F300 Z0.2
G1 F1500 E10.26841
G1 F771.7 X132.834 Y97.967 E10.33544
G1 F775.4 X134.13 Y97.966 E10.40214
G1 F1500 E3.90214
G1 F300 Z0.4
G0 F6000 X128.693 Y122.143 Z0.4
G1 F300 Z0.2
G1 F1500 E10.40214
G1 F1197 X129.201 Y122.142 E10.41908
G1 F1188.1 X129.709 Y122.141 E10.43615
G1 F1179.4 X130.217 Y122.139 E10.45334
G1 F1170.7 X130.725 Y122.138 E10.47066
G1 F1162.2 X131.233 Y122.137 E10.4881
G1 F928.4 X131.591 Y122.035 E10.5041
G1 X131.411 Y121.829 E10.51586
G1 F1162.2 X130.98 Y121.08 E10.54554
G1 F1167.9 X130.549 Y120.33 E10.5751
G1 F1176.5 X130.118 Y119.58 E10.60445
G1 F1191.1 X130.131 Y119.454 E10.60869
G1 F1200 X131.423 Y117.214 E10.6947
G1 X131.551 Y117.125 E10.69989
G1 X134.169 Y117.125 E10.78696
G1 X134.303 Y117.224 E10.7925
G1 X135.574 Y119.424 E10.87701
G1 X135.612 Y119.56 E10.8817
G1 X135.002 Y120.617 E10.9223
G1 F1188.1 X134.866 Y120.86 E10.93165
G1 F1162.2 X134.73 Y121.104 E10.94124
G1 F1137.4 X134.594 Y121.348 E10.95104
G1 F1116.3 X134.458 Y121.592 E10.96103
G1 F1093.4 X134.322 Y121.836 E10.97123
G1 F898.9 X134.182 Y122.033 E10.98196
G1 X134.486 Y122.121 E10.99601
G1 F1093.4 X134.765 Y122.125 E11.0062
G1 F1116.3 X135.044 Y122.13 E11.01618
G1 F1137.4 X135.323 Y122.134 E11.02597
G1 F1162.2 X135.602 Y122.139 E11.03555
G1 F1188.1 X135.881 Y122.143 E11.04492
G1 F1200 X136.9 Y122.144 E11.07881
G1 X136.9 Y97.856 E11.88664
G1 F1197 X136.417 Y97.857 E11.90274
G1 F1188.1 X135.934 Y97.859 E11.91897
G1 F1179.4 X135.451 Y97.86 E11.93531
G1 F1170.7 X134.968 Y97.862 E11.95178
G1 F1162.2 X134.485 Y97.864 E11.96837
G1 F930.2 X134.129 Y97.966 E11.98425
G1 X134.309 Y98.171 E11.99596
G1 F1162.2 X134.562 Y98.611 E12.01339
G1 F1170.7 X134.815 Y99.052 E12.03072
G1 F1179.4 X135.068 Y99.492 E12.0479
G1 F1188.1 X135.321 Y99.933 E12.06498
G1 F1197 X135.574 Y100.374 E12.08193
G1 F1200 X135.602 Y100.475 E12.08542
G1 X135.574 Y100.576 E12.0889
G1 X134.303 Y102.776 E12.17341
G1 X134.169 Y102.875 E12.17895
G1 X131.56 Y102.873 E12.26573
G1 X131.443 Y102.821 E12.26998
G1 X130.131 Y100.546 E12.35733
G1 F1167.9 X130.118 Y100.421 E12.36163
G1 F1126.8 X130.244 Y100.198 E12.3707
G1 F1103.4 X130.371 Y99.974 E12.38001
G1 F1081.1 X130.498 Y99.751 E12.38949
G1 F1057.3 X130.625 Y99.527 E12.39921
G1 F1036.7 X130.752 Y99.304 E12.40909
G1 F1016.9 X130.878 Y99.08 E12.41918
G1 F997.9 X131.005 Y98.857 E12.42944
G1 F979.6 X131.132 Y98.633 E12.43993
G1 F960 X131.259 Y98.409 E12.45064
G1 F943 X131.386 Y98.186 E12.4615
G1 F926.6 X131.513 Y97.962 E12.47259
G1 F993.8 X131.234 Y97.879 E12.48428
G1 F1088.4 X130.98 Y97.877 E12.49359
G1 F1098.4 X130.726 Y97.875 E12.50282
G1 F1108.5 X130.472 Y97.873 E12.51197
G1 F1121.5 X130.218 Y97.871 E12.52101
G1 F1132.1 X129.964 Y97.869 E12.52996
G1 F1145.6 X129.71 Y97.866 E12.53881
G1 F1156.6 X129.456 Y97.864 E12.54758
G1 F1167.9 X129.202 Y97.862 E12.55626
G1 F1182.3 X128.948 Y97.86 E12.56483
G1 F1194 X128.694 Y97.858 E12.57332
G1 F1200 X83.101 Y97.857 E14.08975
G1 X83.1 Y122.144 E14.89754
G1 X128.693 Y122.143 E16.41397
G1 F1500 E9.91397
G1 F300 Z0.4
G0 F6000 X131.591 Y122.035 Z0.4
G1 F300 Z0.2
G1 F1500 E16.41397
G1 F772.9 X132.887 Y122.034 E16.48089
G1 F770.5 X134.183 Y122.033 E16.54803
G0 F6000 X135.487 Y121.356
;TYPE:SKIN
G1 F1057.3 X136.111 Y121.356 E16.57159
G1 X136.104 Y120.298 E16.61153
G1 X135.487 Y121.356 E16.65776
G1 F1500 E10.15776
G1 F300 Z0.4
G0 F6000 X89.35 Y121.382 Z0.4
G1 F300 Z0.2
G1 F1500 E16.65776
G1 F1200 X130.281 Y121.382 E18.01913
G1 X129.489 Y120.011 E18.07179
G1 X129.366 Y119.669 E18.08388
G1 X129.373 Y119.363 E18.09406
G1 X129.444 Y119.117 E18.10258
G1 X130.793 Y116.785 E18.19218
G1 X131.079 Y116.51 E18.20538
G1 X131.324 Y116.401 E18.2143
G1 X131.569 Y116.366 E18.22253
G1 X134.33 Y116.365 E18.31436
G1 X134.696 Y116.545 E18.32793
G1 X134.963 Y116.847 E18.34133
G1 X136.139 Y118.886 E18.41962
G1 X136.13 Y101.151 E19.00949
G1 X134.938 Y103.188 E19.08799
G1 X134.697 Y103.455 E19.09995
G1 X134.33 Y103.635 E19.11355
G1 X131.567 Y103.634 E19.20545
G1 X131.324 Y103.599 E19.21361
G1 X130.96 Y103.399 E19.22743
G1 X130.796 Y103.215 E19.23562
G1 X129.444 Y100.883 E19.32528
G1 X129.373 Y100.637 E19.33379
G1 X129.366 Y100.332 E19.34394
G1 X129.473 Y100.023 E19.35482
G1 X130.281 Y98.618 E19.40872
G1 X89.35 Y98.617 E20.7701
G1 X90.512 Y100.626 E20.84729
G1 X90.612 Y100.877 E20.85627
G1 X90.645 Y101.147 E20.86532
G1 X90.562 Y101.509 E20.87767
G1 X89.19 Y103.871 E20.96852
G1 X89.048 Y104.029 E20.97559
G1 X88.722 Y104.219 E20.98814
G1 X88.434 Y104.269 E20.99786
G1 X85.851 Y104.269 E21.08377
G1 X85.574 Y104.222 E21.09312
G1 X85.302 Y104.088 E21.1032
G1 X85.036 Y103.786 E21.11659
G1 X83.871 Y101.794 E21.19334
G1 X83.861 Y104.109 E21.27034
G1 X83.862 Y118.246 E21.74054
G1 X85.037 Y116.211 E21.81869
G1 X85.303 Y115.911 E21.83203
G1 X85.605 Y115.763 E21.84322
G1 X85.85 Y115.731 E21.85143
G1 X88.434 Y115.731 E21.93738
G1 X88.707 Y115.775 E21.94658
G1 X89.024 Y115.951 E21.95864
G1 X89.185 Y116.114 E21.96626
G1 X90.56 Y118.489 E22.05753
G1 X90.645 Y118.853 E22.06996
G1 X90.612 Y119.123 E22.07901
G1 X90.512 Y119.374 E22.088
G1 X89.35 Y121.382 E22.16516
G1 F1500 E15.66516
G1 F300 Z0.4
G0 F6000 X84.292 Y117.101 Z0.4
G1 F300 Z0.2
G1 F1500 E22.16516
G1 F1200 X84.06 Y116.87 E22.17605
G0 F6000 X84.499 Y116.743
G1 F1200 X84.06 Y116.304 E22.1967
G0 F6000 X84.06 Y115.739
G1 F1200 X84.706 Y116.384 E22.22706
