;FLAVOR:Marlin
;TIME:469
;Filament used: 0.282703m
;Layer height: 0.2
;MINX:34.657
;MINY:27.244
;MINZ:0.2
;MAXX:69.857
;MAXY:49.704
;MAXZ:4.6
;Generated with Cura_SteamEngine main
M82 ;absolute extrusion mode
; Ender 3 Custom Start G-code
G92 E0 ; Reset Extruder
G28 ; Home all axes
M104 S175 ; Start heating up the nozzle most of the way
M190 S55 ; Start heating the bed, wait until target temperature reached
M109 S190.0 ; Finish heating the nozzle
G1 Z2.0 F3000 ; Move Z Axis up little to prevent scratching of Heat Bed
G1 X0.1 Y20 Z0.3 F5000.0 ; Move to start position
G1 X0.1 Y200.0 Z0.3 F1500.0 E15 ; Draw the first line
G1 X0.4 Y200.0 Z0.3 F5000.0 ; Move to side a little
G1 X0.4 Y20 Z0.3 F1500.0 E30 ; Draw the second line
G92 E0 ; Reset Extruder
G1 Z2.0 F3000 ; Move Z Axis up little to prevent scratching of Heat Bed
G1 X5 Y20 Z0.3 F5000.0 ; Move over to prevent blob squish
G92 E0
G92 E0
G1 F1500 E-6.5
;LAYER_COUNT:23
;LAYER:0
M107
G1 F300 Z0.4
;MESH:feather-tft-case-midframe.stl
G0 F6000 X69.416 Y28.828 Z0.4
;TYPE:WALL-INNER
G1 F300 Z0.2
G1 F1500 E0
G1 F1081.1 X69.454 Y28.351 E0.01767
G1 F1179.4 X69.454 Y27.647 E0.04149
G1 X68.873 Y27.648 E0.06115
G1 F1153.8 X69.06 Y27.934 E0.07297
G1 F1106 X69.248 Y28.22 E0.08532
G1 F1059.6 X69.332 Y28.524 E0.0972
G1 F1016.9 X69.416 Y28.828 E0.10958
G1 F1500 E-6.39042
G1 F300 Z0.4
G0 F6000 X69.405 Y30.622 Z0.4
G1 F300 Z0.2
G1 F1500 E0.10958
G1 F952.4 X69.405 Y29.547 E0.15463
G1 F977.6 X69.418 Y29.059 E0.17456
G1 X69.336 Y29.541 E0.19453
G1 F952.4 X69.242 Y29.774 E0.20505
G1 X68.948 Y30.225 E0.22762
G1 X68.773 Y30.393 E0.23778
G1 X68.424 Y30.621 E0.25525
G1 X69.405 Y30.622 E0.29636
G1 F1500 E-6.20364
G1 F300 Z0.4
G0 F6000 X65.949 Y46.961 Z0.4
G1 F300 Z0.2
G1 F1500 E0.29636
G1 F1014.8 X66.17 Y46.633 E0.31192
G1 X66.661 Y46.311 E0.33501
G1 X65.943 Y46.311 E0.36325
G1 F1100.9 X65.457 Y46.274 E0.38092
G1 F1200 X36.057 Y46.274 E1.35877
G1 F1025.6 X35.584 Y46.147 E1.37783
G1 F1019.1 X35.462 Y45.778 E1.39305
G1 F1185.2 X35.462 Y44.459 E1.43747
G1 X35.462 Y43.14 E1.48189
G1 F1188.1 X35.461 Y41.821 E1.52619
G1 X35.461 Y40.502 E1.5705
G1 F1191.1 X35.46 Y39.183 E1.6147
G1 X35.46 Y37.864 E1.6589
G1 F1194 X35.459 Y36.545 E1.70299
G1 F1197 X35.459 Y35.226 E1.74697
G1 X35.458 Y33.907 E1.79095
G1 F1200 X35.458 Y32.588 E1.83482
G1 X35.457 Y31.269 E1.87869
G1 F1025.6 X35.584 Y30.801 E1.89756
G1 F1019.1 X35.953 Y30.679 E1.91278
G1 F1182.3 X65.596 Y30.671 E2.9135
G1 F1093.4 X65.943 Y30.637 E2.92623
G1 F1014.8 X66.661 Y30.637 E2.95447
G1 X66.169 Y30.315 E2.97759
G1 X65.949 Y29.986 E2.99316
G1 F1052.6 X65.851 Y30.193 E3.00184
G1 F1137.4 X65.561 Y30.269 E3.01236
G1 F1182.3 X35.918 Y30.277 E4.01308
G1 F1095.9 X35.656 Y30.309 E4.0227
G1 F952.4 X35.394 Y30.342 E4.03376
G1 F893.9 X35.125 Y30.342 E4.04577
G1 X35.125 Y30.611 E4.05779
G1 F956.2 X35.091 Y30.942 E4.07167
G1 F1106 X35.057 Y31.274 E4.08372
G1 F1200 X35.057 Y32.596 E4.12769
G1 X35.057 Y33.918 E4.17166
G1 F1197 X35.057 Y35.24 E4.21574
G1 X35.058 Y36.562 E4.25982
G1 F1194 X35.058 Y37.884 E4.30401
G1 F1191.1 X35.058 Y39.206 E4.34831
G1 X35.058 Y40.528 E4.39261
G1 F1188.1 X35.059 Y41.85 E4.43702
G1 X35.059 Y43.172 E4.48143
G1 F1185.2 X35.059 Y44.494 E4.52595
G1 X35.06 Y45.816 E4.57046
G1 F1095.9 X35.092 Y46.075 E4.57997
G1 F952.4 X35.125 Y46.337 E4.59104
G1 F893.9 X35.125 Y46.606 E4.60305
G1 X35.394 Y46.606 E4.61506
G1 F956.2 X35.725 Y46.64 E4.62895
G1 F1106 X36.057 Y46.674 E4.64099
G1 F1200 X65.457 Y46.674 E5.61884
G1 F1148.3 X65.85 Y46.753 E5.63277
G1 F1057.3 X65.949 Y46.961 E5.64147
G1 F1500 E-0.85853
G1 F300 Z0.4
G0 F6000 X69.416 Y47.878 Z0.4
G1 F300 Z0.2
G1 F1500 E5.64147
G1 F973.6 X69.405 Y47.401 E5.66103
G1 F952.4 X69.405 Y46.326 E5.70608
G1 X68.424 Y46.327 E5.74719
G1 X68.773 Y46.555 E5.76466
G1 X68.948 Y46.723 E5.77483
G1 X69.242 Y47.172 E5.79732
G1 X69.336 Y47.407 E5.80792
G1 F973.6 X69.416 Y47.878 E5.82751
G0 F6000 X69.453 Y49.3
G1 F1176.5 X69.453 Y48.597 E5.85136
G1 F1083.5 X69.418 Y48.109 E5.86938
G1 F1023.5 X69.334 Y48.416 E5.88179
G1 F1064.3 X69.25 Y48.724 E5.89376
G1 F1106 X69.086 Y48.976 E5.90461
G1 F1153.8 X68.922 Y49.228 E5.91501
G1 F1176.5 X68.85 Y49.299 E5.91845
G1 X69.453 Y49.3 E5.9389
G0 F6000 X69.857 Y49.704
;TYPE:WALL-OUTER
G1 F1200 X69.857 Y45.874 E6.06629
G1 X68.093 Y45.875 E6.12496
G1 F1153.8 X67.806 Y45.915 E6.13498
G1 F1069 X67.518 Y45.955 E6.14584
G1 X67.229 Y45.915 E6.15673
G1 F1153.8 X66.94 Y45.875 E6.16682
G1 F1200 X36.057 Y45.874 E7.194
G1 X35.915 Y45.816 E7.1991
G1 X35.859 Y45.709 E7.20311
G1 X35.857 Y31.274 E7.68322
G1 X35.915 Y31.132 E7.68833
G1 X36.022 Y31.076 E7.69234
G1 X66.94 Y31.073 E8.72068
G1 F1153.8 X67.229 Y31.033 E8.73077
G1 F1069 X67.518 Y30.993 E8.74166
G1 X67.805 Y31.033 E8.75248
G1 F1153.8 X68.093 Y31.073 E8.76254
G1 F1200 X69.857 Y31.074 E8.82121
G1 X69.857 Y27.244 E8.9486
G1 X68.053 Y27.245 E9.0086
G1 F923.1 X67.577 Y27.365 E9.02982
G1 F827.6 X67.836 Y27.483 E9.04355
G1 F1043.5 X68.096 Y27.601 E9.05447
G1 F1200 X68.56 Y27.906 E9.07294
G1 X68.886 Y28.403 E9.09271
G1 X68.987 Y28.949 E9.11118
G1 X68.886 Y29.494 E9.12961
G1 X68.56 Y29.992 E9.14941
G1 X68.095 Y30.297 E9.16791
G1 F1108.5 X67.829 Y30.389 E9.17804
G1 F961.9 X67.563 Y30.481 E9.18972
G1 F902.3 X67.467 Y30.48 E9.19396
G1 F961.9 X67.202 Y30.389 E9.20559
G1 F1108.5 X66.937 Y30.297 E9.21569
G1 F1200 X66.477 Y29.994 E9.23401
G1 F1203 X66.147 Y29.493 E9.25391
G1 X66.045 Y28.95 E9.27224
G1 X66.147 Y28.403 E9.2907
G1 X66.474 Y27.906 E9.31044
G1 F1200 X66.937 Y27.601 E9.32888
G1 F1043.5 X67.197 Y27.483 E9.3398
G1 F827.6 X67.457 Y27.365 E9.35357
G1 F923.1 X66.98 Y27.245 E9.37484
G1 F1200 X65.657 Y27.244 E9.41884
G1 X65.658 Y29.674 E9.49967
G1 X65.586 Y29.828 E9.50532
G1 X65.492 Y29.872 E9.50877
G1 X34.657 Y29.874 E10.53435
G1 X34.657 Y47.074 E11.10642
G1 X65.457 Y47.074 E12.13084
G1 X65.586 Y47.119 E12.13538
G1 X65.657 Y47.271 E12.14096
G1 X65.657 Y49.704 E12.22188
G1 X66.98 Y49.703 E12.26588
G1 F923.1 X67.457 Y49.583 E12.28715
G1 F827.6 X67.197 Y49.465 E12.30092
G1 F1043.5 X66.937 Y49.347 E12.31184
G1 F1200 X66.474 Y49.042 E12.33028
G1 F1203 X66.147 Y48.544 E12.35005
G1 X66.045 Y48 E12.36841
G1 X66.147 Y47.453 E12.38687
G1 X66.477 Y46.954 E12.40672
G1 F1200 X66.937 Y46.651 E12.42504
G1 F1108.5 X67.204 Y46.559 E12.43521
G1 F961.9 X67.471 Y46.467 E12.44693
G1 F902.3 X67.567 Y46.468 E12.45117
G1 F961.9 X67.831 Y46.559 E12.46276
G1 F1108.5 X68.095 Y46.651 E12.47283
G1 F1200 X68.56 Y46.956 E12.49132
G1 X68.886 Y47.453 E12.51109
G1 X68.987 Y47.999 E12.52956
G1 X68.886 Y48.544 E12.54799
G1 X68.56 Y49.042 E12.56779
G1 X68.095 Y49.347 E12.58629
G1 F1043.5 X67.836 Y49.465 E12.59717
G1 F827.6 X67.577 Y49.583 E12.6109
G1 F923.1 X68.053 Y49.703 E12.63212
G1 F1200 X69.857 Y49.704 E12.69213
G1 F1500 E6.19213
G1 F300 Z0.4
G0 F6000 X69.418 Y48.109 Z0.4
;TYPE:WALL-INNER
G1 F300 Z0.2
G1 F1500 E12.69213
G1 F1000 X69.416 Y47.878 E12.70135
G1 F1500 E6.20135
G1 F300 Z0.4
G0 F6000 X66.155 Y49.265 Z0.4
G1 F300 Z0.2
G1 F1500 E12.70135
G1 F1004.2 X66.125 Y49.316 E12.7037
G1 X66.067 Y49.316 E12.706
G1 X66.037 Y49.265 E12.70835
G1 X66.067 Y49.214 E12.71071
G1 X66.125 Y49.214 E12.71301
G1 F1500 E6.21301
G1 F300 Z0.4
G0 F6000 X69.418 Y29.059 Z0.4
G1 F300 Z0.2
G1 F1500 E12.71301
G1 F1000 X69.416 Y28.828 E12.72223
G1 F1500 E6.22223
G1 F300 Z0.4
G0 F6000 X66.155 Y27.683 Z0.4
M104 S190
G1 F300 Z0.2
G1 F1500 E12.72223
G1 F1004.2 X66.125 Y27.734 E12.72458
G1 X66.067 Y27.734 E12.72689
G1 X66.037 Y27.683 E12.72924
G1 X66.067 Y27.632 E12.73159
G1 X66.125 Y27.632 E12.7339
G1 F1500 E6.2339
G1 F300 Z0.4
;MESH:NONMESH
G0 F6000 X69.416 Y28.828 Z0.4
;TIME_ELAPSED:29.311302
;LAYER:1
M106 S85
;TYPE:WALL-INNER
;MESH:feather-tft-case-midframe.stl
G1 F300 Z0.4
G1 F1500 E12.7339
G1 F1216.2 X69.454 Y28.351 E12.75156
G1 F1326.8 X69.454 Y27.647 E12.77539
G1 X68.873 Y27.648 E12.79505
G1 F1298.1 X69.06 Y27.934 E12.80687
G1 F1244.2 X69.248 Y28.22 E12.81922
G1 F1192.1 X69.332 Y28.524 E12.8311
G1 F1144.1 X69.416 Y28.828 E12.84348
G1 F1500 E6.34348
G1 F300 Z0.6
G0 F7500 X69.405 Y30.622 Z0.6
G1 F300 Z0.4
G1 F1500 E12.84348
G1 F1071.4 X69.405 Y29.547 E12.88853
G1 F1099.8 X69.418 Y29.059 E12.90846
G1 X69.336 Y29.541 E12.92842
G1 F1071.4 X69.242 Y29.774 E12.93895
G1 X68.948 Y30.225 E12.96151
G1 X68.773 Y30.393 E12.97168
G1 X68.424 Y30.621 E12.98915
G1 X69.405 Y30.622 E13.03026
G1 F1500 E6.53026
G1 F300 Z0.6
G0 F7500 X65.949 Y46.961 Z0.6
G1 F300 Z0.4
G1 F1500 E13.03026
G1 F1141.6 X66.17 Y46.633 E13.04582
G1 X66.661 Y46.311 E13.06891
G1 X65.943 Y46.311 E13.09715
G1 F1238.5 X65.457 Y46.274 E13.11482
G1 F1350 X36.057 Y46.274 E14.09267
G1 F1153.8 X35.584 Y46.147 E14.11173
G1 F1146.5 X35.462 Y45.778 E14.12695
G1 F1333.3 X35.462 Y44.459 E14.17137
G1 X35.462 Y43.14 E14.21578
G1 F1336.6 X35.461 Y41.821 E14.26009
G1 X35.461 Y40.502 E14.3044
G1 F1340 X35.46 Y39.183 E14.3486
G1 X35.46 Y37.864 E14.3928
G1 F1343.3 X35.459 Y36.545 E14.43689
G1 F1346.6 X35.459 Y35.226 E14.48087
G1 X35.458 Y33.907 E14.52485
G1 F1350 X35.458 Y32.588 E14.56872
G1 X35.457 Y31.269 E14.61259
G1 F1153.8 X35.584 Y30.801 E14.63146
G1 F1146.5 X35.953 Y30.679 E14.64668
G1 F1330 X65.596 Y30.671 E15.6474
G1 F1230.1 X65.943 Y30.637 E15.66013
G1 F1141.6 X66.661 Y30.637 E15.68837
G1 X66.169 Y30.315 E15.71149
G1 X65.949 Y29.986 E15.72706
G1 F1184.2 X65.851 Y30.193 E15.73574
G1 F1279.6 X65.561 Y30.269 E15.74626
G1 F1330 X35.918 Y30.277 E16.74698
G1 F1232.9 X35.656 Y30.309 E16.75659
G1 F1071.4 X35.394 Y30.342 E16.76766
G1 F1005.6 X35.125 Y30.342 E16.77967
G1 X35.125 Y30.611 E16.79168
G1 F1075.7 X35.091 Y30.942 E16.80557
G1 F1244.2 X35.057 Y31.274 E16.81762
G1 F1350 X35.057 Y32.596 E16.86159
G1 X35.057 Y33.918 E16.90556
G1 F1346.6 X35.057 Y35.24 E16.94964
G1 X35.058 Y36.562 E16.99371
G1 F1343.3 X35.058 Y37.884 E17.0379
G1 F1340 X35.058 Y39.206 E17.0822
G1 X35.058 Y40.528 E17.1265
G1 F1336.6 X35.059 Y41.85 E17.17091
G1 X35.059 Y43.172 E17.21532
G1 F1333.3 X35.059 Y44.494 E17.25984
G1 X35.06 Y45.816 E17.30436
G1 F1232.9 X35.092 Y46.075 E17.31387
G1 F1071.4 X35.125 Y46.337 E17.32493
G1 F1005.6 X35.125 Y46.606 E17.33694
G1 X35.394 Y46.606 E17.34896
G1 F1075.7 X35.725 Y46.64 E17.36285
G1 F1244.2 X36.057 Y46.674 E17.37489
G1 F1350 X65.457 Y46.674 E18.35274
G1 F1291.9 X65.85 Y46.753 E18.36667
G1 F1189.4 X65.949 Y46.961 E18.37537
G1 F1500 E11.87537
G1 F300 Z0.6
G0 F7500 X69.416 Y47.878 Z0.6
G1 F300 Z0.4
G1 F1500 E18.37537
G1 F1095.3 X69.405 Y47.401 E18.39492
G1 F1071.4 X69.405 Y46.326 E18.43998
G1 X68.424 Y46.327 E18.48109
G1 X68.773 Y46.555 E18.49856
G1 X68.948 Y46.723 E18.50872
G1 X69.242 Y47.172 E18.53121
G1 X69.336 Y47.407 E18.54182
G1 F1095.3 X69.416 Y47.878 E18.56141
G0 F7500 X69.453 Y49.3
G1 F1323.5 X69.453 Y48.597 E18.58526
G1 F1219 X69.418 Y48.109 E18.60328
G1 F1151.4 X69.334 Y48.416 E18.61569
G1 F1197.3 X69.25 Y48.724 E18.62766
G1 F1244.2 X69.086 Y48.976 E18.63851
G1 F1298.1 X68.922 Y49.228 E18.64891
G1 F1323.5 X68.85 Y49.299 E18.65234
G1 X69.453 Y49.3 E18.6728
G0 F7500 X69.857 Y49.704
;TYPE:WALL-OUTER
G1 F1350 X69.857 Y45.874 E18.80019
G1 X68.093 Y45.875 E18.85886
G1 F1298.1 X67.806 Y45.915 E18.86888
G1 F1202.7 X67.518 Y45.955 E18.87974
G1 X67.229 Y45.915 E18.89063
G1 F1298.1 X66.94 Y45.875 E18.90072
G1 F1350 X36.057 Y45.874 E19.92789
G1 X35.915 Y45.816 E19.933
G1 X35.859 Y45.709 E19.93701
G1 X35.857 Y31.274 E20.41712
G1 X35.915 Y31.132 E20.42222
G1 X36.022 Y31.076 E20.42624
G1 X66.94 Y31.073 E21.45458
G1 F1298.1 X67.229 Y31.033 E21.46467
G1 F1202.7 X67.518 Y30.993 E21.47556
G1 X67.805 Y31.033 E21.48638
G1 F1298.1 X68.093 Y31.073 E21.49644
G1 F1350 X69.857 Y31.074 E21.55511
G1 X69.857 Y27.244 E21.6825
G1 X68.053 Y27.245 E21.7425
G1 F1038.5 X67.577 Y27.365 E21.76372
G1 F931 X67.836 Y27.483 E21.77745
G1 F1173.9 X68.096 Y27.601 E21.78837
G1 F1350 X68.56 Y27.906 E21.80684
G1 X68.886 Y28.403 E21.82661
G1 X68.987 Y28.949 E21.84507
G1 X68.886 Y29.494 E21.86351
G1 X68.56 Y29.992 E21.88331
G1 X68.095 Y30.297 E21.9018
G1 F1247.1 X67.829 Y30.389 E21.91194
G1 F1082.2 X67.563 Y30.481 E21.92361
G1 F1015 X67.467 Y30.48 E21.92786
G1 F1082.2 X67.202 Y30.389 E21.93949
G1 F1247.1 X66.937 Y30.297 E21.94959
G1 F1350 X66.477 Y29.994 E21.96791
G1 F1353.4 X66.147 Y29.493 E21.98781
G1 X66.045 Y28.95 E22.00614
G1 X66.147 Y28.403 E22.0246
G1 X66.474 Y27.906 E22.04434
G1 F1350 X66.937 Y27.601 E22.06278
G1 F1173.9 X67.197 Y27.483 E22.0737
G1 F931 X67.457 Y27.365 E22.08747
G1 F1038.5 X66.98 Y27.245 E22.10874
G1 F1350 X65.657 Y27.244 E22.15274
G1 X65.658 Y29.674 E22.23356
G1 X65.586 Y29.828 E22.23922
G1 X65.492 Y29.872 E22.24267
G1 X34.657 Y29.874 E23.26825
G1 X34.657 Y47.074 E23.84032
G1 X65.457 Y47.074 E24.86473
G1 X65.586 Y47.119 E24.86928
G1 X65.657 Y47.271 E24.87486
G1 X65.657 Y49.704 E24.95578
G1 X66.98 Y49.703 E24.99978
G1 F1038.5 X67.457 Y49.583 E25.02105
G1 F931 X67.197 Y49.465 E25.03482
G1 F1173.9 X66.937 Y49.347 E25.04574
G1 F1350 X66.474 Y49.042 E25.06418
G1 F1353.4 X66.147 Y48.544 E25.08395
G1 X66.045 Y48 E25.10231
G1 X66.147 Y47.453 E25.12077
G1 X66.477 Y46.954 E25.14062
G1 F1350 X66.937 Y46.651 E25.15894
G1 F1247.1 X67.204 Y46.559 E25.16911
G1 F1082.2 X67.471 Y46.467 E25.18082
G1 F1015 X67.567 Y46.468 E25.18507
G1 F1082.2 X67.831 Y46.559 E25.19666
G1 F1247.1 X68.095 Y46.651 E25.20672
G1 F1350 X68.56 Y46.956 E25.22522
G1 X68.886 Y47.453 E25.24499
G1 X68.987 Y47.999 E25.26346
G1 X68.886 Y48.544 E25.28189
G1 X68.56 Y49.042 E25.30169
G1 X68.095 Y49.347 E25.32018
G1 F1173.9 X67.836 Y49.465 E25.33107
G1 F931 X67.577 Y49.583 E25.3448
G1 F1038.5 X68.053 Y49.703 E25.36602
G1 F1350 X69.857 Y49.704 E25.42602
G1 F1500 E18.92602
G1 F300 Z0.6
G0 F7500 X69.418 Y48.109 Z0.6
;TYPE:WALL-INNER
G1 F300 Z0.4
G1 F1500 E25.42602
G1 F1125 X69.416 Y47.878 E25.43524
G1 F1500 E18.93524
G1 F300 Z0.6
G0 F7500 X66.155 Y49.265 Z0.6
G1 F300 Z0.4
G1 F1500 E25.43524
G1 F1129.7 X66.125 Y49.316 E25.4376
G1 X66.067 Y49.316 E25.4399
G1 X66.037 Y49.265 E25.44225
G1 X66.067 Y49.214 E25.4446
G1 X66.125 Y49.214 E25.44691
G1 F1500 E18.94691
G1 F300 Z0.6
G0 F7500 X69.418 Y29.059 Z0.6
G1 F300 Z0.4
G1 F1500 E25.44691
G1 F1125 X69.416 Y28.828 E25.45613
G1 F1500 E18.95613
G1 F300 Z0.6
G0 F7500 X66.155 Y27.683 Z0.6
G1 F300 Z0.4
G1 F1500 E25.45613
G1 F1129.7 X66.125 Y27.734 E25.45848
G1 X66.067 Y27.734 E25.46079
G1 X66.037 Y27.683 E25.46314
G1 X66.067 Y27.632 E25.46549
G1 X66.125 Y27.632 E25.46779
G1 F1500 E18.96779
G1 F300 Z0.6
;MESH:NONMESH
G0 F7500 X69.416 Y28.828 Z0.6
;TIME_ELAPSED:52.359815
;LAYER:2
M106 S170
;TYPE:WALL-INNER
;MESH:feather-tft-case-midframe.stl
G1 F300 Z0.6
G1 F1500 E25.46779
G1 F1351.4 X69.454 Y28.351 E25.48546
G1 F1474.2 X69.454 Y27.647 E25.50929
G1 X68.873 Y27.648 E25.52895
G1 F1442.3 X69.06 Y27.934 E25.54077
G1 F1382.5 X69.248 Y28.22 E25.55312
G1 F1324.5 X69.332 Y28.524 E25.565
G1 F1271.2 X69.416 Y28.828 E25.57738
G1 F1500 E19.07738
G1 F300 Z0.8
G0 F9000 X69.405 Y30.622 Z0.8
G1 F300 Z0.6
G1 F1500 E25.57738
G1 F1190.5 X69.405 Y29.547 E25.62243
G1 F1222 X69.418 Y29.059 E25.64236
G1 X69.336 Y29.541 E25.66232
G1 F1190.5 X69.242 Y29.774 E25.67285
G1 X68.948 Y30.225 E25.69541
G1 X68.773 Y30.393 E25.70558
G1 X68.424 Y30.621 E25.72305
G1 X69.405 Y30.622 E25.76416
G1 F1500 E19.26416
G1 F300 Z0.8
G0 F9000 X65.949 Y46.961 Z0.8
G1 F300 Z0.6
G1 F1500 E25.76416
G1 F1268.5 X66.17 Y46.633 E25.77971
G1 X66.661 Y46.311 E25.80281
G1 X65.943 Y46.311 E25.83105
G1 F1376.1 X65.457 Y46.274 E25.84872
G1 F1500 X36.057 Y46.274 E26.82656
G1 F1282.1 X35.584 Y46.147 E26.84562
G1 F1273.9 X35.462 Y45.778 E26.86084
G1 F1481.5 X35.462 Y44.459 E26.90526
G1 X35.462 Y43.14 E26.94968
G1 F1485.1 X35.461 Y41.821 E26.99399
G1 X35.461 Y40.502 E27.0383
G1 F1488.8 X35.46 Y39.183 E27.0825
G1 X35.46 Y37.864 E27.1267
G1 F1492.5 X35.459 Y36.545 E27.17079
G1 F1496.3 X35.459 Y35.226 E27.21477
G1 X35.458 Y33.907 E27.25875
G1 F1500 X35.458 Y32.588 E27.30262
G1 X35.457 Y31.269 E27.34649
G1 F1282.1 X35.584 Y30.801 E27.36536
G1 F1273.9 X35.953 Y30.679 E27.38058
G1 F1477.8 X65.596 Y30.671 E28.3813
G1 F1366.7 X65.943 Y30.637 E28.39402
G1 F1268.5 X66.661 Y30.637 E28.42226
G1 X66.169 Y30.315 E28.44539
G1 X65.949 Y29.986 E28.46096
G1 F1315.8 X65.851 Y30.193 E28.46964
G1 F1421.8 X65.561 Y30.269 E28.48016
G1 F1477.8 X35.918 Y30.277 E29.48088
